;FLAVOR:Marlin
;TIME:2352
;Filament used: 1.08146m
;Layer height: 0.2
;MINX:79
;MINY:91.2
;MINZ:0.2
;MAXX:141
;MAXY:128.8
;MAXZ:15.8
;Generated with Cura_SteamEngine master
M82 ;absolute extrusion mode
START_PRINT T_BED=75.0 T_EXTRUDER=235.0
G92 E0
G92 E0
G1 F1500 E-6.5
;LAYER_COUNT:79
;LAYER:0
M107
G0 F6000 X82.899 Y93.816 Z0.2
;TYPE:SKIRT
G1 F1500 E0
G1 F900 X83.64 Y93.241 E0.0312
G1 X84.427 Y92.731 E0.06239
G1 X85.255 Y92.29 E0.09359
G1 X86.117 Y91.921 E0.12478
G1 X87.008 Y91.627 E0.15598
G1 X87.92 Y91.409 E0.18717
G1 X88.847 Y91.271 E0.21834
G1 X89.701 Y91.213 E0.24681
G1 X90.021 Y91.204 E0.25746
G1 X90.33 Y91.2 E0.26774
G1 X90.809 Y91.2 E0.28367
G1 X91.671 Y91.211 E0.31234
G1 X91.986 Y91.22 E0.32282
G1 X92.792 Y91.256 E0.34966
G1 X94.086 Y91.33 E0.39277
G1 X96.588 Y91.402 E0.47602
G1 X99.105 Y91.404 E0.55973
G1 X102.174 Y91.311 E0.66185
G1 X103.107 Y91.268 E0.69292
G1 X103.439 Y91.257 E0.70397
G1 X104.122 Y91.246 E0.72669
G1 X104.436 Y91.246 E0.73713
G1 X104.997 Y91.254 E0.75579
G1 X106.844 Y91.304 E0.81725
G1 X109.326 Y91.3 E0.8998
G1 X110.189 Y91.295 E0.9285
G1 X111.115 Y91.329 E0.95932
G1 X111.869 Y91.388 E0.98448
G1 X114.422 Y91.552 E1.06956
G1 X116.989 Y91.644 E1.155
G1 X118.861 Y91.663 E1.21726
G1 X121.424 Y91.627 E1.30252
G1 X123.946 Y91.52 E1.38648
G1 X126.425 Y91.344 E1.46914
G1 X126.87 Y91.304 E1.484
G1 X127.521 Y91.253 E1.50571
G1 X128.178 Y91.221 E1.52759
G1 X129.159 Y91.203 E1.56023
G1 X129.518 Y91.202 E1.57217
G1 X130.148 Y91.211 E1.59312
G1 X131.084 Y91.264 E1.6243
G1 X132.013 Y91.397 E1.65552
G1 X132.927 Y91.609 E1.68672
G1 X133.819 Y91.898 E1.71791
G1 X134.683 Y92.261 E1.74908
G1 X135.514 Y92.697 E1.78029
G1 X136.304 Y93.202 E1.81148
G1 X137.049 Y93.773 E1.8427
G1 X137.742 Y94.404 E1.87387
G1 X138.378 Y95.093 E1.90506
G1 X138.954 Y95.833 E1.93625
G1 X139.465 Y96.62 E1.96746
G1 X139.906 Y97.447 E1.99863
G1 X140.276 Y98.309 E2.02983
G1 X140.571 Y99.2 E2.06105
G1 X140.789 Y100.112 E2.09223
G1 X140.929 Y101.039 E2.12342
G1 X140.987 Y101.901 E2.15215
G1 X140.996 Y102.221 E2.1628
G1 X141 Y102.53 E2.17308
G1 X140.999 Y114.238 E2.56249
G1 X140.993 Y114.694 E2.57765
G1 X140.982 Y115.071 E2.5902
G1 X140.951 Y115.724 E2.61194
G1 X140.807 Y117.048 E2.65624
G1 X140.791 Y117.142 E2.65941
G1 X140.707 Y117.58 E2.67424
G1 X140.648 Y117.858 E2.68369
G1 X140.408 Y118.788 E2.71564
G1 X140.375 Y118.896 E2.7194
G1 X140.207 Y119.403 E2.73716
G1 X140.106 Y119.684 E2.74709
G1 X139.781 Y120.487 E2.7759
G1 X139.744 Y120.569 E2.7789
G1 X139.524 Y121.027 E2.7958
G1 X139.397 Y121.277 E2.80512
G1 X138.878 Y122.188 E2.83999
G1 X138.819 Y122.281 E2.84366
G1 X138.593 Y122.623 E2.85729
G1 X138.432 Y122.857 E2.86674
G1 X137.684 Y123.825 E2.90743
G1 X137.509 Y124.027 E2.91632
G1 X136.621 Y124.939 E2.95865
G1 X136.221 Y125.305 E2.97669
G1 X135.222 Y126.117 E3.0195
G1 X135.147 Y126.171 E3.02258
G1 X134.656 Y126.505 E3.04233
G1 X134.422 Y126.655 E3.05157
G1 X133.685 Y127.088 E3.08
G1 X133.575 Y127.147 E3.08416
G1 X133.062 Y127.405 E3.10325
G1 X132.839 Y127.51 E3.11145
G1 X132.14 Y127.81 E3.13675
G1 X132.014 Y127.859 E3.14125
G1 X131.369 Y128.087 E3.164
G1 X131.115 Y128.168 E3.17287
G1 X130.202 Y128.416 E3.20434
G1 X130.096 Y128.44 E3.20795
G1 X129.677 Y128.527 E3.22218
G1 X129.381 Y128.582 E3.2322
G1 X128.202 Y128.736 E3.27174
G1 X128.07 Y128.746 E3.27615
G1 X127.452 Y128.775 E3.29673
G1 X126.264 Y128.798 E3.33625
G1 X126.051 Y128.8 E3.34333
G1 X93.563 Y128.799 E4.42389
G1 X93.106 Y128.793 E4.43909
G1 X92.728 Y128.782 E4.45166
G1 X92.076 Y128.751 E4.47337
G1 X90.752 Y128.607 E4.51767
G1 X90.658 Y128.591 E4.52084
G1 X90.22 Y128.507 E4.53568
G1 X89.942 Y128.448 E4.54513
G1 X89.012 Y128.208 E4.57707
G1 X88.904 Y128.175 E4.58083
G1 X88.418 Y128.014 E4.59786
G1 X88.138 Y127.914 E4.60775
G1 X87.213 Y127.535 E4.64099
G1 X86.79 Y127.332 E4.6566
G1 X86.537 Y127.204 E4.66603
G1 X85.591 Y126.665 E4.70224
G1 X85.5 Y126.607 E4.70583
G1 X85.177 Y126.393 E4.71872
G1 X84.943 Y126.232 E4.72817
G1 X83.975 Y125.484 E4.76885
G1 X83.773 Y125.309 E4.77774
G1 X82.861 Y124.421 E4.82008
G1 X82.495 Y124.021 E4.83811
G1 X81.683 Y123.022 E4.88093
G1 X81.629 Y122.947 E4.88401
G1 X81.295 Y122.456 E4.90376
G1 X81.145 Y122.222 E4.913
G1 X80.712 Y121.485 E4.94143
G1 X80.653 Y121.375 E4.94558
G1 X80.391 Y120.854 E4.96498
G1 X80.282 Y120.622 E4.9735
G1 X79.971 Y119.893 E4.99987
G1 X79.926 Y119.776 E5.00403
G1 X79.717 Y119.183 E5.02495
G1 X79.635 Y118.927 E5.03389
G1 X79.403 Y118.09 E5.06278
G1 X79.375 Y117.971 E5.06684
G1 X79.258 Y117.405 E5.08607
G1 X79.21 Y117.139 E5.09506
G1 X79.073 Y116.105 E5.12975
G1 X79.06 Y115.95 E5.13492
G1 X79.024 Y115.236 E5.1587
G1 X79.002 Y114.057 E5.19792
G1 X79 Y113.852 E5.20474
G1 X79.001 Y102.709 E5.57536
G1 X79.011 Y102.044 E5.59748
G1 X79.065 Y101.107 E5.62869
G1 X79.199 Y100.179 E5.65988
G1 X79.411 Y99.265 E5.69108
G1 X79.7 Y98.373 E5.72227
G1 X80.065 Y97.509 E5.75347
G1 X80.501 Y96.679 E5.78465
G1 X81.007 Y95.889 E5.81585
G1 X81.578 Y95.145 E5.84705
G1 X82.21 Y94.452 E5.87824
G1 X82.899 Y93.816 E5.90943
G0 F6000 X83.288 Y94.013
G1 F900 X84.024 Y93.461 E5.94003
G1 X84.806 Y92.974 E5.97067
G1 X85.627 Y92.558 E6.00128
G1 X86.481 Y92.214 E6.0319
G1 X87.361 Y91.945 E6.06251
G1 X88.262 Y91.754 E6.09314
G1 X89.176 Y91.642 E6.12377
G1 X89.712 Y91.613 E6.14162
G1 X90.032 Y91.604 E6.15227
G1 X90.33 Y91.6 E6.16218
G1 X90.809 Y91.6 E6.17811
G1 X91.665 Y91.611 E6.20659
G1 X91.969 Y91.62 E6.2167
G1 X92.769 Y91.655 E6.24334
G1 X94.051 Y91.728 E6.28604
G1 X96.611 Y91.802 E6.37123
G1 X99.116 Y91.804 E6.45454
G1 X102.141 Y91.713 E6.5552
G1 X103.125 Y91.667 E6.58796
G1 X103.445 Y91.657 E6.59861
G1 X104.128 Y91.646 E6.62133
G1 X104.431 Y91.646 E6.63141
G1 X104.987 Y91.654 E6.6499
G1 X106.835 Y91.704 E6.71139
G1 X109.329 Y91.7 E6.79434
G1 X110.192 Y91.695 E6.82305
G1 X111.084 Y91.728 E6.85273
G1 X111.816 Y91.786 E6.87716
G1 X114.417 Y91.952 E6.96384
G1 X116.969 Y92.043 E7.04878
G1 X118.863 Y92.063 E7.11177
G1 X121.446 Y92.027 E7.19769
G1 X123.955 Y91.92 E7.28122
G1 X126.495 Y91.74 E7.36591
G1 X126.901 Y91.702 E7.37947
G1 X127.552 Y91.651 E7.40119
G1 X128.186 Y91.621 E7.4223
G1 X129.167 Y91.603 E7.45494
G1 X129.512 Y91.602 E7.46641
G1 X130.142 Y91.611 E7.48737
G1 X131.062 Y91.664 E7.51802
G1 X131.973 Y91.797 E7.54864
G1 X132.869 Y92.008 E7.57926
G1 X133.743 Y92.296 E7.60986
G1 X134.589 Y92.659 E7.64048
G1 X135.401 Y93.094 E7.67112
G1 X136.171 Y93.598 E7.70173
G1 X136.895 Y94.167 E7.73236
G1 X137.567 Y94.796 E7.76297
G1 X138.182 Y95.482 E7.79361
G1 X138.735 Y96.218 E7.82423
G1 X139.222 Y96.999 E7.85485
G1 X139.639 Y97.82 E7.88547
G1 X139.984 Y98.673 E7.91608
G1 X140.253 Y99.554 E7.94671
G1 X140.445 Y100.454 E7.97732
G1 X140.557 Y101.368 E8.00795
G1 X140.587 Y101.912 E8.02607
G1 X140.596 Y102.232 E8.03672
G1 X140.6 Y102.53 E8.04663
G1 X140.599 Y114.232 E8.43584
G1 X140.593 Y114.688 E8.45101
G1 X140.582 Y115.052 E8.46312
G1 X140.551 Y115.705 E8.48486
G1 X140.413 Y116.981 E8.52755
G1 X140.397 Y117.075 E8.53072
G1 X140.316 Y117.497 E8.54501
G1 X140.257 Y117.775 E8.55447
G1 X140.025 Y118.672 E8.58528
G1 X139.992 Y118.78 E8.58904
G1 X139.83 Y119.267 E8.60611
G1 X139.729 Y119.548 E8.61604
G1 X139.416 Y120.323 E8.64384
G1 X139.379 Y120.405 E8.64683
G1 X139.167 Y120.846 E8.66311
G1 X139.04 Y121.096 E8.67243
G1 X138.541 Y121.973 E8.70599
G1 X138.482 Y122.066 E8.70966
G1 X138.264 Y122.396 E8.72281
G1 X138.103 Y122.63 E8.73226
G1 X137.382 Y123.563 E8.77148
G1 X137.207 Y123.765 E8.78036
G1 X136.351 Y124.644 E8.82117
G1 X135.951 Y125.01 E8.83921
G1 X134.989 Y125.792 E8.88044
G1 X134.914 Y125.846 E8.88351
G1 X134.44 Y126.168 E8.90257
G1 X134.206 Y126.318 E8.91182
G1 X133.496 Y126.735 E8.9392
G1 X133.386 Y126.794 E8.94335
G1 X132.892 Y127.043 E8.96175
G1 X132.669 Y127.148 E8.96995
G1 X131.995 Y127.437 E8.99434
G1 X131.869 Y127.486 E8.99884
G1 X131.248 Y127.706 E9.02075
G1 X130.994 Y127.787 E9.02962
G1 X130.114 Y128.026 E9.05995
G1 X130.008 Y128.05 E9.06356
G1 X129.603 Y128.134 E9.07732
G1 X129.307 Y128.189 E9.08733
G1 X128.172 Y128.337 E9.1254
G1 X128.04 Y128.347 E9.12981
G1 X127.444 Y128.375 E9.14965
G1 X126.256 Y128.398 E9.18917
G1 X126.051 Y128.4 E9.19599
G1 X93.568 Y128.399 E10.27638
G1 X93.111 Y128.393 E10.29158
G1 X92.747 Y128.382 E10.30369
G1 X92.095 Y128.351 E10.3254
G1 X90.819 Y128.213 E10.36809
G1 X90.725 Y128.197 E10.37126
G1 X90.303 Y128.116 E10.38555
G1 X90.025 Y128.057 E10.39501
G1 X89.128 Y127.825 E10.42582
G1 X89.02 Y127.792 E10.42958
G1 X88.553 Y127.637 E10.44594
G1 X88.273 Y127.537 E10.45583
G1 X87.381 Y127.172 E10.48789
G1 X86.971 Y126.975 E10.50302
G1 X86.718 Y126.847 E10.51245
G1 X85.806 Y126.328 E10.54735
G1 X85.715 Y126.27 E10.55094
G1 X85.404 Y126.064 E10.56335
G1 X85.17 Y125.903 E10.57279
G1 X84.237 Y125.182 E10.61201
G1 X84.035 Y125.007 E10.6209
G1 X83.156 Y124.151 E10.66171
G1 X82.79 Y123.751 E10.67974
G1 X82.008 Y122.789 E10.72098
G1 X81.954 Y122.714 E10.72405
G1 X81.632 Y122.24 E10.74311
G1 X81.482 Y122.006 E10.75235
G1 X81.065 Y121.296 E10.77974
G1 X81.006 Y121.186 E10.78389
G1 X80.753 Y120.683 E10.80262
G1 X80.644 Y120.451 E10.81114
G1 X80.345 Y119.749 E10.83652
G1 X80.3 Y119.632 E10.84069
G1 X80.098 Y119.06 E10.86087
G1 X80.016 Y118.804 E10.86981
G1 X79.793 Y117.999 E10.89759
G1 X79.765 Y117.88 E10.90166
G1 X79.651 Y117.334 E10.92021
G1 X79.603 Y117.068 E10.9292
G1 X79.472 Y116.072 E10.96261
G1 X79.459 Y115.917 E10.96778
G1 X79.424 Y115.229 E10.9907
G1 X79.402 Y114.05 E11.02992
G1 X79.4 Y113.852 E11.0365
G1 X79.401 Y102.715 E11.40692
G1 X79.411 Y102.05 E11.42904
G1 X79.465 Y101.131 E11.45966
G1 X79.598 Y100.22 E11.49028
G1 X79.81 Y99.324 E11.52091
G1 X80.099 Y98.449 E11.55155
G1 X80.463 Y97.604 E11.58216
G1 X80.898 Y96.793 E11.61277
G1 X81.403 Y96.022 E11.64342
G1 X81.972 Y95.299 E11.67402
G1 X82.602 Y94.627 E11.70466
G1 X83.288 Y94.013 E11.73528
G0 F6000 X83.675 Y94.214
G1 F900 X84.407 Y93.685 E11.76532
G1 X85.183 Y93.223 E11.79536
G1 X85.997 Y92.832 E11.82539
G1 X86.842 Y92.513 E11.85543
G1 X87.712 Y92.271 E11.88547
G1 X88.6 Y92.107 E11.9155
G1 X89.723 Y92.013 E11.95298
G1 X90.043 Y92.004 E11.96363
G1 X90.33 Y92 E11.97318
G1 X90.809 Y92 E11.98911
G1 X91.659 Y92.011 E12.01738
G1 X91.952 Y92.019 E12.02713
G1 X92.747 Y92.054 E12.0536
G1 X94.054 Y92.128 E12.09714
G1 X96.6 Y92.202 E12.18185
G1 X99.128 Y92.204 E12.26594
G1 X102.173 Y92.112 E12.36726
G1 X103.144 Y92.067 E12.39959
G1 X103.452 Y92.057 E12.40984
G1 X104.135 Y92.046 E12.43256
G1 X104.426 Y92.046 E12.44224
G1 X104.976 Y92.054 E12.46053
G1 X106.825 Y92.104 E12.52205
G1 X109.331 Y92.1 E12.6054
G1 X110.194 Y92.095 E12.63411
G1 X111.052 Y92.126 E12.66266
G1 X111.822 Y92.187 E12.68835
G1 X114.378 Y92.35 E12.77354
G1 X116.991 Y92.444 E12.8605
G1 X118.864 Y92.463 E12.9228
G1 X121.433 Y92.427 E13.00826
G1 X123.999 Y92.318 E13.09368
G1 X126.522 Y92.139 E13.17781
G1 X126.932 Y92.101 E13.1915
G1 X127.583 Y92.05 E13.21322
G1 X128.193 Y92.021 E13.23353
G1 X129.174 Y92.003 E13.26616
G1 X129.507 Y92.002 E13.27724
G1 X130.137 Y92.011 E13.2982
G1 X131.038 Y92.064 E13.32822
G1 X131.932 Y92.196 E13.35827
G1 X132.81 Y92.407 E13.38831
G1 X133.666 Y92.695 E13.41835
G1 X134.493 Y93.057 E13.44837
G1 X135.285 Y93.491 E13.47841
G1 X136.035 Y93.994 E13.50844
G1 X136.738 Y94.561 E13.53848
G1 X137.389 Y95.187 E13.56852
G1 X137.981 Y95.869 E13.59856
G1 X138.51 Y96.601 E13.6286
G1 X138.973 Y97.376 E13.65863
G1 X139.365 Y98.19 E13.68867
G1 X139.684 Y99.035 E13.71872
G1 X139.927 Y99.905 E13.74876
G1 X140.092 Y100.793 E13.7788
G1 X140.187 Y101.923 E13.81652
G1 X140.196 Y102.243 E13.82716
G1 X140.2 Y102.53 E13.83671
G1 X140.199 Y114.227 E14.22575
G1 X140.193 Y114.683 E14.24092
G1 X140.183 Y115.033 E14.25257
G1 X140.152 Y115.686 E14.27431
G1 X140.018 Y116.914 E14.3154
G1 X140.002 Y117.008 E14.31857
G1 X139.925 Y117.414 E14.33231
G1 X139.866 Y117.692 E14.34177
G1 X139.643 Y118.555 E14.37141
G1 X139.61 Y118.663 E14.37517
G1 X139.454 Y119.132 E14.39161
G1 X139.353 Y119.413 E14.40154
G1 X139.051 Y120.158 E14.42828
G1 X139.014 Y120.24 E14.43127
G1 X138.811 Y120.665 E14.44693
G1 X138.684 Y120.915 E14.45626
G1 X138.203 Y121.759 E14.48857
G1 X138.144 Y121.852 E14.49223
G1 X137.934 Y122.17 E14.50491
G1 X137.773 Y122.404 E14.51435
G1 X137.079 Y123.301 E14.55208
G1 X136.904 Y123.503 E14.56097
G1 X136.081 Y124.349 E14.60022
G1 X135.681 Y124.715 E14.61825
G1 X134.755 Y125.468 E14.65795
G1 X134.68 Y125.522 E14.66102
G1 X134.225 Y125.831 E14.67932
G1 X133.991 Y125.981 E14.68856
G1 X133.307 Y126.383 E14.71495
G1 X133.197 Y126.442 E14.7191
G1 X132.721 Y126.681 E14.73682
G1 X132.498 Y126.786 E14.74502
G1 X131.85 Y127.064 E14.76847
G1 X131.724 Y127.113 E14.77296
G1 X131.126 Y127.325 E14.79407
G1 X130.872 Y127.406 E14.80293
G1 X130.025 Y127.636 E14.83213
G1 X129.919 Y127.66 E14.83574
G1 X129.53 Y127.74 E14.84895
G1 X129.234 Y127.795 E14.85896
G1 X128.142 Y127.938 E14.89559
G1 X128.01 Y127.948 E14.9
G1 X127.436 Y127.975 E14.91911
G1 X126.248 Y127.998 E14.95863
G1 X126.051 Y128 E14.96518
G1 X93.573 Y127.999 E16.0454
G1 X93.116 Y127.993 E16.06061
G1 X92.766 Y127.982 E16.07225
G1 X92.114 Y127.951 E16.09396
G1 X90.886 Y127.818 E16.13504
G1 X90.792 Y127.802 E16.13822
G1 X90.386 Y127.725 E16.15196
G1 X90.108 Y127.666 E16.16141
G1 X89.245 Y127.443 E16.19106
G1 X89.137 Y127.41 E16.19481
G1 X88.687 Y127.261 E16.21058
G1 X88.407 Y127.161 E16.22047
G1 X87.549 Y126.81 E16.2513
G1 X87.151 Y126.618 E16.266
G1 X86.898 Y126.49 E16.27543
G1 X86.021 Y125.99 E16.30901
G1 X85.63 Y125.734 E16.32455
G1 X85.396 Y125.573 E16.334
G1 X84.499 Y124.879 E16.37172
G1 X84.297 Y124.704 E16.38061
G1 X83.451 Y123.881 E16.41986
G1 X83.085 Y123.481 E16.4379
G1 X82.332 Y122.555 E16.47759
G1 X82.278 Y122.48 E16.48067
G1 X81.969 Y122.025 E16.49896
G1 X81.819 Y121.791 E16.50821
G1 X81.417 Y121.107 E16.53459
G1 X81.358 Y120.997 E16.53875
G1 X81.115 Y120.513 E16.55676
G1 X81.006 Y120.281 E16.56528
G1 X80.718 Y119.606 E16.58969
G1 X80.673 Y119.489 E16.59386
G1 X80.479 Y118.938 E16.61329
G1 X80.397 Y118.682 E16.62223
G1 X80.182 Y117.907 E16.64898
G1 X80.154 Y117.788 E16.65305
G1 X80.045 Y117.263 E16.67088
G1 X79.997 Y116.997 E16.67987
G1 X79.871 Y116.038 E16.71204
G1 X79.858 Y115.883 E16.71722
G1 X79.824 Y115.221 E16.73926
G1 X79.8 Y113.852 E16.7848
G1 X79.801 Y102.721 E17.15502
G1 X79.811 Y102.056 E17.17714
G1 X79.865 Y101.154 E17.2072
G1 X79.998 Y100.261 E17.23723
G1 X80.209 Y99.383 E17.26726
G1 X80.498 Y98.527 E17.29731
G1 X80.861 Y97.7 E17.32735
G1 X81.295 Y96.909 E17.35736
G1 X81.798 Y96.158 E17.38742
G1 X82.366 Y95.456 E17.41745
G1 X82.993 Y94.806 E17.44749
G1 X83.675 Y94.214 E17.47753
G0 F6000 X102.029 Y107.045
G1 F900 X102.412 Y107.325 E17.49331
G1 X102.438 Y107.404 E17.49608
G1 X102.412 Y107.483 E17.49884
G1 X102.344 Y107.533 E17.50165
G1 X102.262 Y107.533 E17.50438
G1 X102.177 Y107.471 E17.50788
G1 X102.029 Y107.045 E17.52288
G0 F6000 X102.105 Y106.607
G1 F900 X102.754 Y107.079 E17.54957
G1 X102.859 Y107.404 E17.56093
G1 X102.754 Y107.729 E17.57229
G1 X102.473 Y107.933 E17.58384
G1 X102.133 Y107.933 E17.59514
G1 X101.84 Y107.72 E17.60719
G1 X101.289 Y106.143 E17.66275
G1 X100.901 Y105.133 E17.69874
G1 X100.745 Y104.838 E17.70984
G1 X100.689 Y104.775 E17.71264
G1 X100.871 Y104.805 E17.71878
G1 X101.204 Y104.781 E17.72988
G1 X101.617 Y104.631 E17.7445
G1 X101.955 Y104.443 E17.75736
G1 X101.814 Y104.629 E17.76512
G1 X101.645 Y104.917 E17.77623
G1 X101.549 Y105.237 E17.78734
G1 X101.532 Y105.571 E17.79846
G1 X101.595 Y105.899 E17.80957
G1 X101.733 Y106.203 E17.82068
G1 X101.94 Y106.465 E17.83178
G1 X102.105 Y106.607 E17.83902
G0 F6000 X102.34 Y106.283
G1 F900 X103.093 Y106.831 E17.87
G1 X103.28 Y107.404 E17.89004
G1 X103.093 Y107.977 E17.91009
G1 X102.604 Y108.333 E17.93021
G1 X102.002 Y108.333 E17.95023
G1 X101.503 Y107.969 E17.97078
G1 X100.915 Y106.286 E18.03007
G1 X100.527 Y105.276 E18.06606
G1 X100.39 Y105.03 E18.07542
G1 X100.189 Y104.832 E18.08481
G1 X99.99 Y104.717 E18.09245
G1 X98.952 Y104.27 E18.13004
G1 X98.679 Y104.196 E18.13945
G1 X98.399 Y104.2 E18.14876
G1 X96.9 Y104.438 E18.19924
G1 X96.456 Y104.368 E18.21419
G1 X96.248 Y104.217 E18.22274
G1 X96.195 Y104.054 E18.22844
G1 X96.248 Y103.891 E18.23414
G1 X96.444 Y103.749 E18.24219
