;FLAVOR:Marlin
;TIME:9042
;Filament used: 3.04654m
;Layer height: 0.16
;MINX:84.576
;MINY:96.463
;MINZ:0.2
;MAXX:142.74
;MAXY:124.593
;MAXZ:32.28
;Generated with Cura_SteamEngine master
M82 ;absolute extrusion mode
START_PRINT T_BED=75.0 T_EXTRUDER=235.0
G92 E0
G92 E0
G1 F1500 E-6.5
;LAYER_COUNT:195
;LAYER:0
M107
G0 F6000 X120.252 Y105.861 Z0.2
;TYPE:SKIRT
G1 F1500 E0
G1 F900 X120.588 Y105.861 E0.01118
G1 X120.818 Y105.842 E0.01885
G1 X120.784 Y106.041 E0.02557
G1 X120.756 Y106.354 E0.03602
G1 X120.245 Y106.823 E0.05909
G1 X120.255 Y106.771 E0.06085
G1 X120.27 Y106.282 E0.07712
G1 X120.224 Y105.935 E0.08876
G1 X120.252 Y105.861 E0.09139
G0 F6000 X120.122 Y105.461
G1 F900 X120.588 Y105.461 E0.10689
G1 X121.042 Y105.421 E0.12205
G1 X121.308 Y105.35 E0.13121
G1 X121.178 Y106.109 E0.15682
G1 X121.143 Y106.541 E0.17124
G1 X119.403 Y108.137 E0.24977
G1 X119.211 Y108.154 E0.25618
G1 X119.432 Y107.88 E0.26789
G1 X119.652 Y107.481 E0.28304
G1 X119.799 Y107.05 E0.29819
G1 X119.868 Y106.6 E0.31333
G1 X119.858 Y106.144 E0.3285
G1 X119.809 Y105.916 E0.33626
G1 X119.906 Y105.618 E0.34668
G1 X120.122 Y105.461 E0.35556
G0 F6000 X119.436 Y106.022
G1 F900 X119.4 Y105.882 E0.36037
G1 X119.566 Y105.372 E0.37821
G1 X119.993 Y105.061 E0.39578
G1 X120.588 Y105.061 E0.41557
G1 X121.005 Y105.021 E0.4295
G1 X121.407 Y104.903 E0.44343
G1 X121.692 Y104.746 E0.45426
G1 X121.76 Y105.086 E0.46579
G1 X121.573 Y106.176 E0.50257
G1 X121.541 Y106.594 E0.51652
G1 X121.554 Y106.707 E0.5203
G1 X119.572 Y108.524 E0.60973
G1 X119.448 Y108.524 E0.61385
G1 X119.037 Y108.605 E0.62779
G1 X118.648 Y108.761 E0.64173
G1 X118.195 Y109.075 E0.66006
G1 X116.299 Y110.771 E0.74467
G1 X115.275 Y111.522 E0.7869
G1 X113.627 Y111.53 E0.84172
G1 X113.045 Y111.507 E0.86109
G1 X112.807 Y111.367 E0.87027
G1 X113.024 Y111.213 E0.87912
G1 X114.579 Y111.198 E0.93085
G1 X114.996 Y111.154 E0.94479
G1 X115.397 Y111.032 E0.95873
G1 X115.767 Y110.836 E0.97266
G1 X116.046 Y110.618 E0.98444
G1 X118.14 Y108.695 E1.079
G1 X118.236 Y108.602 E1.08344
G1 X118.858 Y107.957 E1.11324
G1 X119.118 Y107.629 E1.12716
G1 X119.312 Y107.258 E1.14109
G1 X119.432 Y106.856 E1.15504
G1 X119.474 Y106.439 E1.16898
G1 X119.436 Y106.022 E1.18291
G0 F6000 X118.649 Y106.166
G1 F900 X118.563 Y105.867 E1.19326
G1 X118.885 Y104.877 E1.22788
G1 X119.732 Y104.261 E1.26272
G1 X120.588 Y104.261 E1.29119
G1 X120.92 Y104.221 E1.30231
G1 X121.232 Y104.104 E1.31339
G1 X121.411 Y103.993 E1.3204
G1 X121.756 Y103.742 E1.33459
G1 X122.12 Y103.742 E1.34669
G1 X122.338 Y103.901 E1.35567
G1 X122.573 Y105.075 E1.39549
G1 X122.361 Y106.311 E1.4372
G1 X122.344 Y106.645 E1.44832
G1 X122.407 Y106.973 E1.45943
G1 X122.419 Y107 E1.46042
G1 X119.87 Y109.337 E1.57543
G1 X119.789 Y109.32 E1.57819
G1 X119.455 Y109.329 E1.5893
G1 X119.133 Y109.418 E1.60041
G1 X118.728 Y109.671 E1.61629
G1 X116.801 Y111.395 E1.70229
G1 X115.538 Y112.321 E1.75438
G1 X113.624 Y112.33 E1.81804
G1 X112.779 Y112.297 E1.84617
G1 X112.619 Y112.181 E1.85274
G1 X112.327 Y112.017 E1.86388
G1 X112.005 Y111.928 E1.87499
G1 X111.838 Y111.913 E1.88057
G1 X109.825 Y111.85 E1.94755
G1 X109.492 Y111.879 E1.95867
G1 X109.176 Y111.987 E1.96978
G1 X108.957 Y112.117 E1.97825
G1 X108.663 Y112.331 E1.99034
G1 X105.992 Y112.339 E2.07918
G1 X105.813 Y112.208 E2.08656
G1 X105.522 Y112.045 E2.09765
G1 X105.2 Y111.956 E2.10876
G1 X104.866 Y111.945 E2.11988
G1 X104.539 Y112.014 E2.131
G1 X104.164 Y112.209 E2.14505
G1 X103.98 Y112.343 E2.15262
G1 X103.37 Y112.343 E2.17291
G1 X103.171 Y112.198 E2.1811
G1 X102.88 Y112.035 E2.1922
G1 X102.558 Y111.946 E2.20331
G1 X102.224 Y111.935 E2.21442
G1 X101.897 Y112.004 E2.22554
G1 X101.523 Y112.198 E2.23955
G1 X101.342 Y112.33 E2.247
G1 X100.74 Y112.33 E2.26702
G1 X100.387 Y112.073 E2.28155
G1 X100.096 Y111.91 E2.29264
G1 X99.774 Y111.821 E2.30375
G1 X99.44 Y111.81 E2.31487
G1 X99.113 Y111.879 E2.32598
G1 X98.738 Y112.074 E2.34004
G1 X98.668 Y112.125 E2.34292
G1 X98.352 Y112.125 E2.35343
G1 X98.202 Y112.016 E2.3596
G1 X97.91 Y111.853 E2.37072
G1 X97.588 Y111.764 E2.38183
G1 X97.254 Y111.753 E2.39295
G1 X96.928 Y111.822 E2.40403
G1 X96.554 Y112.016 E2.41804
G1 X96.193 Y112.279 E2.4329
G1 X95.885 Y112.279 E2.44314
G1 X95.632 Y112.094 E2.45357
G1 X95.536 Y111.8 E2.46385
G1 X95.632 Y111.506 E2.47414
G1 X95.885 Y111.321 E2.48457
G1 X96.193 Y111.321 E2.49481
G1 X96.323 Y111.416 E2.50016
G1 X96.614 Y111.579 E2.51126
G1 X96.936 Y111.669 E2.52238
G1 X97.27 Y111.68 E2.53349
G1 X97.597 Y111.611 E2.54461
G1 X97.971 Y111.417 E2.55862
G1 X98.31 Y111.171 E2.57255
G1 X99.153 Y111.225 E2.60065
G1 X99.486 Y111.207 E2.61174
G1 X99.806 Y111.11 E2.62286
G1 X100.067 Y110.96 E2.63287
G1 X100.74 Y110.47 E2.66056
G1 X101.342 Y110.47 E2.68059
G1 X101.523 Y110.602 E2.68804
G1 X101.814 Y110.765 E2.69913
G1 X102.136 Y110.854 E2.71024
G1 X102.47 Y110.865 E2.72136
G1 X102.797 Y110.796 E2.73247
G1 X103.171 Y110.602 E2.74649
G1 X103.37 Y110.457 E2.75467
G1 X103.98 Y110.457 E2.77496
G1 X104.161 Y110.589 E2.78241
G1 X104.452 Y110.752 E2.79351
G1 X104.774 Y110.841 E2.80462
G1 X105.108 Y110.852 E2.81573
G1 X105.435 Y110.783 E2.82685
G1 X105.81 Y110.588 E2.84091
G1 X105.991 Y110.456 E2.84836
G1 X108.661 Y110.468 E2.93716
G1 X108.837 Y110.596 E2.9444
G1 X109.129 Y110.76 E2.95554
G1 X109.597 Y110.863 E2.97148
G1 X111.501 Y110.952 E3.03488
G1 X111.834 Y110.928 E3.04598
G1 X112.152 Y110.826 E3.05709
G1 X112.39 Y110.686 E3.06627
G1 X112.761 Y110.416 E3.08153
G1 X114.572 Y110.398 E3.14177
G1 X114.903 Y110.355 E3.15287
G1 X115.215 Y110.235 E3.16399
G1 X115.505 Y110.029 E3.17582
G1 X117.599 Y108.106 E3.27038
G1 X117.66 Y108.047 E3.2732
G1 X118.282 Y107.402 E3.30301
G1 X118.483 Y107.135 E3.31412
G1 X118.616 Y106.829 E3.32522
G1 X118.672 Y106.5 E3.33632
G1 X118.649 Y106.166 E3.34745
G0 F6000 X120.588 Y104.661
G1 F900 X120.965 Y104.621 E3.36006
G1 X121.325 Y104.503 E3.37266
G1 X121.646 Y104.317 E3.385
G1 X121.887 Y104.142 E3.39491
G1 X121.979 Y104.142 E3.39797
G1 X122.166 Y105.081 E3.42981
G1 X121.967 Y106.244 E3.46906
G1 X121.943 Y106.622 E3.48166
G1 X121.978 Y106.862 E3.48972
G1 X119.731 Y108.922 E3.59111
G1 X119.649 Y108.914 E3.59385
G1 X119.272 Y108.957 E3.60647
G1 X118.913 Y109.077 E3.61906
G1 X118.462 Y109.373 E3.637
G1 X116.554 Y111.08 E3.72216
G1 X115.406 Y111.922 E3.76951
G1 X113.638 Y111.93 E3.82831
G1 X112.916 Y111.902 E3.85234
G1 X112.854 Y111.857 E3.85489
G1 X112.526 Y111.668 E3.86748
G1 X112.166 Y111.551 E3.88007
G1 X111.85 Y111.513 E3.89066
G1 X109.837 Y111.45 E3.95764
G1 X109.459 Y111.478 E3.97025
G1 X109.096 Y111.585 E3.98284
G1 X108.722 Y111.794 E3.99709
G1 X108.533 Y111.932 E4.00487
G1 X106.122 Y111.938 E4.08506
G1 X106.049 Y111.885 E4.08806
G1 X105.721 Y111.696 E4.10065
G1 X105.36 Y111.579 E4.11327
G1 X104.983 Y111.54 E4.12588
G1 X104.607 Y111.581 E4.13846
G1 X104.247 Y111.7 E4.15107
G1 X103.929 Y111.885 E4.16331
G1 X103.849 Y111.943 E4.16659
G1 X103.5 Y111.943 E4.1782
G1 X103.407 Y111.875 E4.18203
G1 X103.079 Y111.685 E4.19464
G1 X102.718 Y111.569 E4.20725
G1 X102.341 Y111.53 E4.21986
G1 X101.964 Y111.571 E4.23247
G1 X101.605 Y111.69 E4.24505
G1 X101.287 Y111.875 E4.25729
G1 X101.212 Y111.93 E4.26038
G1 X100.87 Y111.93 E4.27176
G1 X100.623 Y111.75 E4.28192
G1 X100.294 Y111.56 E4.29456
G1 X99.977 Y111.458 E4.30563
G1 X100.303 Y111.283 E4.31794
G1 X100.87 Y110.87 E4.34127
G1 X101.212 Y110.87 E4.35265
G1 X101.287 Y110.925 E4.35574
G1 X101.615 Y111.114 E4.36833
G1 X101.976 Y111.231 E4.38095
G1 X102.353 Y111.27 E4.39356
G1 X102.729 Y111.229 E4.40614
G1 X103.089 Y111.11 E4.41875
G1 X103.407 Y110.925 E4.43098
G1 X103.5 Y110.857 E4.43482
G1 X103.85 Y110.857 E4.44646
G1 X103.925 Y110.912 E4.44955
G1 X104.253 Y111.101 E4.46214
G1 X104.614 Y111.218 E4.47476
G1 X104.991 Y111.257 E4.48737
G1 X105.367 Y111.216 E4.49995
G1 X105.727 Y111.097 E4.51256
G1 X106.045 Y110.912 E4.5248
G1 X106.121 Y110.857 E4.52792
G1 X108.53 Y110.867 E4.60804
G1 X108.602 Y110.92 E4.61101
G1 X108.93 Y111.109 E4.62361
G1 X109.29 Y111.226 E4.6362
G1 X109.578 Y111.263 E4.64585
G1 X111.482 Y111.352 E4.70925
G1 X111.86 Y111.33 E4.72184
G1 X112.225 Y111.229 E4.73444
G1 X112.626 Y111.009 E4.74965
G1 X112.893 Y110.814 E4.76065
G1 X114.576 Y110.798 E4.81663
G1 X114.952 Y110.754 E4.82922
G1 X115.311 Y110.633 E4.84182
G1 X115.776 Y110.324 E4.86039
G1 X117.87 Y108.401 E4.95495
G1 X117.948 Y108.324 E4.95859
G1 X118.57 Y107.679 E4.9884
G1 X118.803 Y107.381 E5.00098
G1 X118.968 Y107.039 E5.01361
G1 X119.058 Y106.671 E5.02621
G1 X119.069 Y106.293 E5.03879
G1 X118.984 Y105.867 E5.05323
G1 X119.227 Y105.123 E5.07927
G1 X119.861 Y104.661 E5.10536
G1 X120.588 Y104.661 E5.12954
G0 F6000 X120.588 Y103.861
G1 F900 X120.867 Y103.821 E5.13891
G1 X121.176 Y103.67 E5.15035
G1 X121.627 Y103.342 E5.1689
G1 X122.249 Y103.342 E5.18959
G1 X122.7 Y103.67 E5.20813
G1 X122.98 Y105.069 E5.25559
G1 X122.755 Y106.379 E5.2998
G1 X122.747 Y106.661 E5.30918
G1 X122.819 Y106.934 E5.31857
G1 X122.912 Y107.09 E5.32461
G1 X119.981 Y109.777 E5.45686
G1 X119.859 Y109.734 E5.46116
G1 X119.577 Y109.718 E5.47056
G1 X119.302 Y109.781 E5.47994
G1 X118.995 Y109.969 E5.49192
G1 X117.056 Y111.704 E5.57846
G1 X115.669 Y112.72 E5.63564
G1 X113.61 Y112.73 E5.70412
G1 X112.642 Y112.693 E5.73634
G1 X112.383 Y112.504 E5.74701
G1 X112.134 Y112.371 E5.7564
G1 X111.825 Y112.312 E5.76686
G1 X109.812 Y112.249 E5.83385
G1 X109.532 Y112.281 E5.84322
G1 X109.193 Y112.44 E5.85567
G1 X108.793 Y112.731 E5.87212
G1 X105.862 Y112.739 E5.96961
G1 X105.578 Y112.532 E5.9813
G1 X105.329 Y112.399 E5.99069
G1 X105.052 Y112.342 E6.00009
G1 X104.771 Y112.364 E6.00947
G1 X104.4 Y112.532 E6.02301
G1 X104.11 Y112.743 E6.03494
G1 X103.239 Y112.743 E6.06391
G1 X102.936 Y112.522 E6.07639
G1 X102.687 Y112.389 E6.08578
G1 X102.41 Y112.332 E6.09518
G1 X102.129 Y112.354 E6.10456
G1 X101.758 Y112.522 E6.1181
G1 X101.473 Y112.73 E6.12984
G1 X100.609 Y112.73 E6.15857
G1 X100.152 Y112.397 E6.17738
G1 X99.902 Y112.264 E6.1868
G1 X99.626 Y112.207 E6.19617
G1 X99.345 Y112.229 E6.20555
G1 X98.974 Y112.397 E6.21909
G1 X98.798 Y112.525 E6.22633
G1 X98.222 Y112.525 E6.24549
G1 X97.966 Y112.339 E6.25601
G1 X97.717 Y112.207 E6.26539
G1 X97.441 Y112.15 E6.27476
G1 X97.16 Y112.172 E6.28414
G1 X96.789 Y112.34 E6.29768
G1 X96.324 Y112.679 E6.31682
G1 X95.755 Y112.679 E6.33575
G1 X95.292 Y112.342 E6.35479
G1 X95.115 Y111.8 E6.37376
G1 X95.292 Y111.258 E6.39272
G1 X95.755 Y110.921 E6.41177
G1 X96.323 Y110.921 E6.43066
G1 X96.559 Y111.093 E6.44037
G1 X96.808 Y111.225 E6.44975
G1 X97.084 Y111.283 E6.45913
G1 X97.365 Y111.261 E6.4685
G1 X97.736 Y111.094 E6.48203
G1 X98.192 Y110.762 E6.50079
G1 X99.179 Y110.826 E6.53369
G1 X99.46 Y110.804 E6.54306
G1 X99.832 Y110.636 E6.55664
G1 X100.609 Y110.07 E6.58861
G1 X101.473 Y110.07 E6.61735
G1 X101.758 Y110.278 E6.62909
G1 X102.007 Y110.411 E6.63847
G1 X102.284 Y110.468 E6.64788
G1 X102.565 Y110.446 E6.65726
G1 X102.936 Y110.278 E6.6708
G1 X103.239 Y110.057 E6.68327
G1 X104.111 Y110.057 E6.71228
G1 X104.396 Y110.265 E6.72401
G1 X104.645 Y110.398 E6.7334
G1 X104.922 Y110.455 E6.74281
G1 X105.203 Y110.433 E6.75218
G1 X105.574 Y110.265 E6.76573
G1 X105.862 Y110.055 E6.77758
G1 X108.792 Y110.069 E6.87504
G1 X109.073 Y110.273 E6.88659
G1 X109.322 Y110.405 E6.89596
G1 X109.615 Y110.464 E6.9059
G1 X111.519 Y110.553 E6.9693
G1 X111.8 Y110.526 E6.97869
G1 X112.155 Y110.362 E6.99169
G1 X112.629 Y110.017 E7.01119
G1 X114.568 Y109.998 E7.07569
G1 X114.847 Y109.955 E7.08507
G1 X115.103 Y109.837 E7.09445
G1 X115.234 Y109.735 E7.09997
G1 X117.328 Y107.812 E7.19453
G1 X117.372 Y107.769 E7.19658
G1 X117.994 Y107.124 E7.22638
G1 X118.159 Y106.895 E7.23577
G1 X118.254 Y106.63 E7.24513
G1 X118.271 Y106.348 E7.25453
G1 X118.225 Y106.121 E7.26223
G1 X118.143 Y105.868 E7.27108
G1 X118.546 Y104.629 E7.31441
G1 X119.601 Y103.861 E7.35781
G1 X120.588 Y103.861 E7.39064
G0 F6000 X120.588 Y103.461
G1 F900 X120.803 Y103.421 E7.39792
G1 X120.941 Y103.346 E7.40314
G1 X121.497 Y102.942 E7.426
G1 X122.379 Y102.942 E7.45533
G1 X123.062 Y103.439 E7.48343
G1 X123.387 Y105.064 E7.53855
G1 X123.15 Y106.447 E7.58522
G1 X123.152 Y106.665 E7.59247
G1 X123.233 Y106.867 E7.59971
G1 X123.488 Y107.106 E7.61133
G1 X120.049 Y110.259 E7.76651
G1 X119.848 Y110.144 E7.77421
G1 X119.632 Y110.115 E7.78146
G1 X119.42 Y110.165 E7.7887
G1 X119.262 Y110.267 E7.79496
G1 X117.309 Y112.015 E7.88213
G1 X115.801 Y113.12 E7.94431
G1 X113.62 Y113.13 E8.01686
G1 X112.504 Y113.087 E8.054
G1 X112.147 Y112.827 E8.06869
G1 X111.951 Y112.733 E8.07592
G1 X111.813 Y112.712 E8.08056
G1 X109.8 Y112.649 E8.14755
G1 X109.584 Y112.682 E8.15482
G1 X109.428 Y112.764 E8.16068
G1 X108.924 Y113.131 E8.18141
G1 X105.732 Y113.139 E8.28758
G1 X105.342 Y112.855 E8.30363
G1 X105.146 Y112.761 E8.31086
G1 X104.928 Y112.743 E8.31813
G1 X104.636 Y112.855 E8.32854
G1 X104.241 Y113.143 E8.34479
G1 X103.109 Y113.143 E8.38244
G1 X102.7 Y112.845 E8.39928
G1 X102.503 Y112.751 E8.40654
G1 X102.286 Y112.733 E8.41378
G1 X101.994 Y112.845 E8.42418
G1 X101.603 Y113.13 E8.44027
G1 X100.479 Y113.13 E8.47766
G1 X99.916 Y112.72 E8.50082
G1 X99.719 Y112.626 E8.50808
G1 X99.502 Y112.608 E8.51532
G1 X99.21 Y112.72 E8.52573
G1 X98.929 Y112.925 E8.53729
G1 X98.091 Y112.925 E8.56517
G1 X97.731 Y112.663 E8.57998
G1 X97.534 Y112.569 E8.58724
G1 X97.317 Y112.551 E8.59448
G1 X97.025 Y112.663 E8.60488
G1 X96.454 Y113.079 E8.62838
G1 X95.624 Y113.079 E8.65598
G1 X94.951 Y112.588 E8.68369
G1 X94.694 Y111.8 E8.71126
G1 X94.951 Y111.012 E8.73883
G1 X95.624 Y110.521 E8.76653
G1 X96.453 Y110.521 E8.79411
G1 X96.794 Y110.77 E8.80815
G1 X96.991 Y110.864 E8.81541
G1 X97.209 Y110.882 E8.82269
G1 X97.501 Y110.77 E8.83309
G1 X98.073 Y110.354 E8.85661
G1 X99.204 Y110.427 E8.89431
G1 X99.421 Y110.401 E8.90158
G1 X99.596 Y110.313 E8.90809
G1 X100.479 Y109.67 E8.94442
G1 X101.603 Y109.67 E8.98181
G1 X101.994 Y109.955 E8.9979
G1 X102.19 Y110.049 E9.00513
G1 X102.408 Y110.067 E9.0124
G1 X102.7 Y109.955 E9.02281
G1 X103.109 Y109.657 E9.03964
G1 X104.241 Y109.657 E9.07729
G1 X104.632 Y109.942 E9.09338
G1 X104.828 Y110.036 E9.10061
G1 X105.046 Y110.054 E9.10789
G1 X105.338 Y109.942 E9.11829
G1 X105.732 Y109.655 E9.1345
G1 X108.924 Y109.669 E9.24067
G1 X109.309 Y109.95 E9.25652
G1 X109.634 Y110.064 E9.26798
G1 X111.538 Y110.153 E9.33137
G1 X111.754 Y110.124 E9.33862
G1 X111.919 Y110.039 E9.34479
G1 X112.497 Y109.618 E9.36858
G1 X114.564 Y109.598 E9.43733
G1 X114.778 Y109.556 E9.44458
G1 X114.964 Y109.44 E9.45187
G1 X117.058 Y107.517 E9.54643
G1 X117.706 Y106.846 E9.57746
G1 X117.826 Y106.665 E9.58468
G1 X117.874 Y106.452 E9.59194
G1 X117.845 Y106.245 E9.5989
G1 X117.722 Y105.868 E9.61209
G1 X118.206 Y104.382 E9.66407
G1 X119.471 Y103.461 E9.71611
G1 X120.588 Y103.461 E9.75326
G0 F6000 X120.588 Y103.061
G1 F900 X120.706 Y103.023 E9.75738
G1 X121.368 Y102.542 E9.7846
G1 X122.508 Y102.542 E9.82252
G1 X123.424 Y103.208 E9.86019
G1 X123.794 Y105.058 E9.92294
G1 X123.544 Y106.514 E9.97207
G1 X123.562 Y106.638 E9.97624
G1 X123.623 Y106.71 E9.97938
G1 X124.119 Y107.07 E9.99976
G1 X119.98 Y110.865 E10.18653
G1 X119.835 Y110.614 E10.19617
G1 X119.742 Y110.531 E10.20032
G1 X119.618 Y110.519 E10.20446
G1 X119.529 Y110.565 E10.20779
G1 X117.557 Y112.329 E10.2958
G1 X115.934 Y113.519 E10.36273
G1 X113.607 Y113.53 E10.44013
G1 X112.368 Y113.482 E10.48137
G1 X111.912 Y113.15 E10.50013
G1 X111.8 Y113.112 E10.50406
G1 X109.787 Y113.049 E10.57105
G1 X109.663 Y113.087 E10.57536
G1 X109.054 Y113.53 E10.60041
G1 X105.604 Y113.54 E10.71516
G1 X105.107 Y113.178 E10.73561
G1 X104.988 Y113.14 E10.73976
G1 X104.871 Y113.178 E10.74386
G1 X104.37 Y113.543 E10.76447
G1 X102.98 Y113.543 E10.8107
G1 X102.465 Y113.168 E10.83189
G1 X102.346 Y113.13 E10.83605
G1 X102.229 Y113.168 E10.84014
G1 X101.732 Y113.53 E10.86059
G1 X100.35 Y113.53 E10.90655
G1 X99.681 Y113.043 E10.93408
G1 X99.562 Y113.005 E10.93823
G1 X99.445 Y113.043 E10.94232
G1 X99.058 Y113.325 E10.95825
G1 X97.962 Y113.325 E10.9947
G1 X97.496 Y112.986 E11.01387
G1 X97.377 Y112.948 E11.01802
G1 X97.26 Y112.986 E11.02212
G1 X96.583 Y113.479 E11.04997
G1 X95.495 Y113.479 E11.08616
G1 X94.611 Y112.835 E11.12253
G1 X94.273 Y111.8 E11.15875
G1 X94.611 Y110.765 E11.19496
