;FLAVOR:Marlin
;TIME:17687
;Filament used: 12.0034m
;Layer height: 0.2
;MINX:47
;MINY:9.5
;MINZ:0.2
;MAXX:173
;MAXY:208.5
;MAXZ:2
;Generated with Cura_SteamEngine master
M82 ;absolute extrusion mode
START_PRINT T_BED=75.0 T_EXTRUDER=235.0
G92 E0
G92 E0
G1 F1500 E-6.5
;LAYER_COUNT:10
;LAYER:0
M107
G0 F6000 X47.694 Y16.689 Z0.2
;TYPE:SKIRT
G1 F1500 E0
G1 F900 X48.057 Y15.824 E0.0312
G1 X48.492 Y14.993 E0.0624
G1 X48.996 Y14.203 E0.09356
G1 X49.566 Y13.458 E0.12476
G1 X50.198 Y12.764 E0.15598
G1 X50.886 Y12.127 E0.18717
G1 X51.626 Y11.551 E0.21836
G1 X52.412 Y11.039 E0.24956
G1 X53.239 Y10.597 E0.28075
G1 X54.101 Y10.227 E0.31195
G1 X54.991 Y9.931 E0.34314
G1 X55.903 Y9.713 E0.37433
G1 X56.83 Y9.572 E0.40552
G1 X57.701 Y9.513 E0.43455
G1 X58.022 Y9.504 E0.44523
G1 X58.33 Y9.5 E0.45548
G1 X161.293 Y9.5 E3.88004
G1 X162.149 Y9.511 E3.90851
G1 X163.085 Y9.565 E3.9397
G1 X164.013 Y9.697 E3.97087
G1 X164.927 Y9.909 E4.00208
G1 X165.819 Y10.198 E4.03327
G1 X166.684 Y10.561 E4.06447
G1 X167.514 Y10.997 E4.09565
G1 X168.305 Y11.502 E4.12686
G1 X169.049 Y12.073 E4.15806
G1 X169.742 Y12.705 E4.18925
G1 X170.379 Y13.393 E4.22044
G1 X170.954 Y14.134 E4.25163
G1 X171.465 Y14.92 E4.28281
G1 X171.907 Y15.748 E4.31403
G1 X172.276 Y16.61 E4.34522
G1 X172.571 Y17.5 E4.3764
G1 X172.789 Y18.412 E4.40759
G1 X172.929 Y19.34 E4.43881
G1 X172.987 Y20.201 E4.46751
G1 X172.996 Y20.521 E4.47816
G1 X173 Y20.83 E4.48843
G1 X172.999 Y196.9 E10.34455
G1 X172.99 Y197.627 E10.36873
G1 X172.939 Y198.564 E10.39994
G1 X172.807 Y199.492 E10.43111
G1 X172.598 Y200.406 E10.4623
G1 X172.311 Y201.299 E10.4935
G1 X171.949 Y202.165 E10.52472
G1 X171.515 Y202.996 E10.5559
G1 X171.011 Y203.787 E10.58709
G1 X170.442 Y204.532 E10.61827
G1 X169.811 Y205.227 E10.64949
G1 X169.124 Y205.865 E10.68068
G1 X168.385 Y206.442 E10.71186
G1 X167.599 Y206.954 E10.74306
G1 X166.773 Y207.397 E10.77423
G1 X165.911 Y207.769 E10.80546
G1 X165.022 Y208.065 E10.83663
G1 X164.11 Y208.285 E10.86783
G1 X163.183 Y208.426 E10.89902
G1 X162.299 Y208.487 E10.92849
G1 X161.978 Y208.496 E10.93917
G1 X161.67 Y208.5 E10.94941
G1 X58.565 Y208.499 E14.3787
G1 X57.867 Y208.49 E14.40192
G1 X56.931 Y208.438 E14.4331
G1 X56.002 Y208.306 E14.46431
G1 X55.088 Y208.096 E14.4955
G1 X54.195 Y207.809 E14.52669
G1 X53.33 Y207.446 E14.5579
G1 X52.499 Y207.012 E14.58908
G1 X51.708 Y206.508 E14.62027
G1 X50.963 Y205.938 E14.65147
G1 X50.269 Y205.307 E14.68267
G1 X49.632 Y204.62 E14.71383
G1 X49.055 Y203.88 E14.74504
G1 X48.543 Y203.094 E14.77624
G1 X48.1 Y202.267 E14.80744
G1 X47.729 Y201.406 E14.83863
G1 X47.433 Y200.516 E14.86982
G1 X47.214 Y199.604 E14.90102
G1 X47.073 Y198.677 E14.9322
G1 X47.013 Y197.788 E14.96184
G1 X47.004 Y197.455 E14.97292
G1 X47 Y197.158 E14.9828
G1 X47.001 Y21.025 E20.84101
G1 X47.01 Y20.36 E20.86313
G1 X47.063 Y19.424 E20.89431
G1 X47.195 Y18.495 E20.92552
G1 X47.406 Y17.581 E20.95671
G1 X47.694 Y16.689 E20.98789
G0 F6000 X48.092 Y16.764
G1 F900 X48.455 Y15.918 E21.01851
G1 X48.889 Y15.106 E21.04913
G1 X49.392 Y14.335 E21.07975
G1 X49.961 Y13.611 E21.11038
G1 X50.589 Y12.939 E21.14097
G1 X51.274 Y12.323 E21.17161
G1 X52.01 Y11.77 E21.20223
G1 X52.791 Y11.282 E21.23286
G1 X53.611 Y10.864 E21.26347
G1 X54.465 Y10.519 E21.29411
G1 X55.345 Y10.249 E21.32472
G1 X56.245 Y10.057 E21.35533
G1 X57.159 Y9.943 E21.38597
G1 X57.712 Y9.913 E21.40438
G1 X58.033 Y9.904 E21.41507
G1 X58.33 Y9.9 E21.42494
G1 X161.293 Y9.9 E24.84951
G1 X162.143 Y9.911 E24.87778
G1 X163.062 Y9.964 E24.9084
G1 X163.973 Y10.097 E24.93902
G1 X164.869 Y10.308 E24.96964
G1 X165.743 Y10.596 E25.00024
G1 X166.59 Y10.959 E25.03089
G1 X167.401 Y11.394 E25.0615
G1 X168.171 Y11.898 E25.09211
G1 X168.895 Y12.467 E25.12274
G1 X169.567 Y13.097 E25.15337
G1 X170.182 Y13.782 E25.18399
G1 X170.735 Y14.518 E25.21461
G1 X171.222 Y15.299 E25.24522
G1 X171.639 Y16.12 E25.27585
G1 X171.984 Y16.974 E25.30649
G1 X172.253 Y17.854 E25.33709
G1 X172.445 Y18.755 E25.36773
G1 X172.558 Y19.668 E25.39833
G1 X172.587 Y20.212 E25.41645
G1 X172.596 Y20.532 E25.4271
G1 X172.6 Y20.83 E25.43701
G1 X172.599 Y196.895 E31.29295
G1 X172.59 Y197.622 E31.31714
G1 X172.539 Y198.541 E31.34775
G1 X172.408 Y199.453 E31.37839
G1 X172.198 Y200.349 E31.409
G1 X171.912 Y201.224 E31.43962
G1 X171.551 Y202.071 E31.47024
G1 X171.117 Y202.883 E31.50087
G1 X170.615 Y203.655 E31.53149
G1 X170.047 Y204.38 E31.56213
G1 X169.419 Y205.053 E31.59274
G1 X168.735 Y205.669 E31.62336
G1 X168 Y206.223 E31.65397
G1 X167.22 Y206.712 E31.68459
G1 X166.4 Y207.131 E31.71522
G1 X165.547 Y207.477 E31.74584
G1 X164.667 Y207.748 E31.77646
G1 X163.767 Y207.941 E31.80708
G1 X162.853 Y208.056 E31.83771
G1 X162.288 Y208.087 E31.85653
G1 X161.967 Y208.096 E31.86722
G1 X161.67 Y208.1 E31.87709
G1 X58.57 Y208.099 E35.30621
G1 X57.872 Y208.09 E35.32943
G1 X56.953 Y208.038 E35.36005
G1 X56.042 Y207.907 E35.39066
G1 X55.146 Y207.697 E35.42127
G1 X54.271 Y207.41 E35.4519
G1 X53.424 Y207.048 E35.48253
G1 X52.612 Y206.614 E35.51315
G1 X51.841 Y206.112 E35.54375
G1 X51.116 Y205.544 E35.57439
G1 X50.443 Y204.915 E35.60503
G1 X49.828 Y204.231 E35.63562
G1 X49.274 Y203.496 E35.66623
G1 X48.786 Y202.715 E35.69686
G1 X48.367 Y201.895 E35.72749
G1 X48.021 Y201.042 E35.75811
G1 X47.751 Y200.162 E35.78872
G1 X47.558 Y199.261 E35.81937
G1 X47.444 Y198.348 E35.84997
G1 X47.413 Y197.777 E35.86899
G1 X47.404 Y197.444 E35.88007
G1 X47.4 Y197.158 E35.88958
G1 X47.401 Y21.031 E41.74759
G1 X47.41 Y20.366 E41.76971
G1 X47.462 Y19.446 E41.80036
G1 X47.594 Y18.535 E41.83098
G1 X47.805 Y17.639 E41.86159
G1 X48.092 Y16.764 E41.89222
G0 F6000 X48.491 Y16.841
G1 F900 X48.853 Y16.014 E41.92225
G1 X49.286 Y15.222 E41.95227
G1 X49.788 Y14.471 E41.98231
G1 X50.355 Y13.767 E42.01238
G1 X50.981 Y13.117 E42.04239
G1 X51.662 Y12.524 E42.07243
G1 X52.394 Y11.994 E42.10249
G1 X53.169 Y11.531 E42.13251
G1 X53.982 Y11.138 E42.16255
G1 X54.827 Y10.818 E42.1926
G1 X55.696 Y10.575 E42.22261
G1 X56.584 Y10.409 E42.25266
G1 X57.723 Y10.313 E42.29067
G1 X58.044 Y10.304 E42.30135
G1 X58.33 Y10.3 E42.31087
G1 X161.293 Y10.3 E45.73543
G1 X162.137 Y10.311 E45.76351
G1 X163.039 Y10.364 E45.79356
G1 X163.932 Y10.496 E45.82358
G1 X164.81 Y10.707 E45.85362
G1 X165.666 Y10.995 E45.88365
G1 X166.493 Y11.357 E45.91368
G1 X167.285 Y11.792 E45.94373
G1 X168.036 Y12.294 E45.97378
G1 X168.739 Y12.861 E46.00382
G1 X169.389 Y13.488 E46.03386
G1 X169.981 Y14.17 E46.06389
G1 X170.511 Y14.901 E46.09392
G1 X170.973 Y15.677 E46.12396
G1 X171.366 Y16.49 E46.154
G1 X171.684 Y17.335 E46.18403
G1 X171.927 Y18.205 E46.21407
G1 X172.092 Y19.093 E46.24411
G1 X172.187 Y20.223 E46.28183
G1 X172.196 Y20.543 E46.29247
G1 X172.2 Y20.83 E46.30202
G1 X172.199 Y196.89 E52.1578
G1 X172.19 Y197.617 E52.18198
G1 X172.139 Y198.519 E52.21203
G1 X172.008 Y199.413 E52.24208
G1 X171.799 Y200.291 E52.2721
G1 X171.513 Y201.148 E52.30215
G1 X171.152 Y201.976 E52.33219
G1 X170.72 Y202.768 E52.3622
G1 X170.219 Y203.52 E52.39225
G1 X169.653 Y204.224 E52.4223
G1 X169.028 Y204.875 E52.45231
G1 X168.347 Y205.469 E52.48237
G1 X167.616 Y206 E52.51242
G1 X166.842 Y206.464 E52.54243
G1 X166.029 Y206.858 E52.57248
G1 X165.185 Y207.178 E52.6025
G1 X164.315 Y207.423 E52.63257
G1 X163.428 Y207.589 E52.66258
G1 X162.277 Y207.687 E52.701
G1 X161.956 Y207.696 E52.71168
G1 X161.67 Y207.7 E52.7212
G1 X58.575 Y207.699 E56.15015
G1 X57.877 Y207.69 E56.17337
G1 X56.976 Y207.639 E56.20338
G1 X56.082 Y207.507 E56.23344
G1 X55.204 Y207.298 E56.26346
G1 X54.347 Y207.011 E56.29352
G1 X53.52 Y206.65 E56.32353
G1 X52.727 Y206.217 E56.35358
G1 X51.976 Y205.716 E56.38361
G1 X51.272 Y205.15 E56.41365
G1 X50.621 Y204.524 E56.44369
G1 X50.028 Y203.843 E56.47372
G1 X49.498 Y203.112 E56.50375
G1 X49.034 Y202.337 E56.5338
G1 X48.64 Y201.524 E56.56385
G1 X48.32 Y200.68 E56.59387
G1 X48.076 Y199.81 E56.62392
G1 X47.91 Y198.922 E56.65397
G1 X47.813 Y197.767 E56.69252
G1 X47.804 Y197.434 E56.7036
G1 X47.8 Y197.158 E56.71278
G1 X47.801 Y21.036 E62.57062
G1 X47.81 Y20.371 E62.59274
G1 X47.862 Y19.469 E62.62279
G1 X47.994 Y18.576 E62.65281
G1 X48.204 Y17.698 E62.68284
G1 X48.491 Y16.841 E62.7129
G1 F1500 E56.2129
;MESH:vented-lid-ext.stl
G0 F6000 X155.654 Y26.494
G0 X153.69 Y27.621
G0 X155.459 Y28.869
;TYPE:WALL-INNER
G1 F1500 E62.7129
G1 F900 X155.973 Y29.006 E62.73059
G1 X156.503 Y29.055 E62.7483
G1 X157.034 Y29.006 E62.76603
G1 X157.548 Y28.869 E62.78373
G1 X158.032 Y28.644 E62.80148
G1 X158.467 Y28.34 E62.81913
G1 X158.845 Y27.962 E62.83691
G1 X159.149 Y27.527 E62.85456
G1 X159.374 Y27.043 E62.87231
G1 X159.511 Y26.529 E62.89
G1 X159.56 Y25.998 E62.90774
G1 X159.511 Y25.468 E62.92544
G1 X159.374 Y24.954 E62.94314
G1 X159.149 Y24.469 E62.96092
G1 X158.845 Y24.035 E62.97854
G1 X158.467 Y23.656 E62.99635
G1 X158.03 Y23.351 E63.01407
G1 X157.549 Y23.128 E63.0317
G1 X157.035 Y22.99 E63.04941
G1 X156.503 Y22.941 E63.06718
G1 X155.971 Y22.99 E63.08494
G1 X155.459 Y23.128 E63.10258
G1 X154.977 Y23.351 E63.12025
G1 X154.54 Y23.656 E63.13797
G1 X154.161 Y24.035 E63.1558
G1 X153.856 Y24.472 E63.17352
G1 X153.633 Y24.954 E63.19119
G1 X153.495 Y25.466 E63.20882
G1 X153.446 Y25.998 E63.22659
G1 X153.495 Y26.53 E63.24436
G1 X153.633 Y27.044 E63.26206
G1 X153.856 Y27.525 E63.2797
G1 X154.161 Y27.962 E63.29742
G1 X154.54 Y28.34 E63.31522
G1 X154.974 Y28.644 E63.33285
G1 X155.459 Y28.869 E63.35063
G0 F6000 X155.596 Y28.492
G1 F900 X156.043 Y28.611 E63.36602
G1 X156.503 Y28.653 E63.38138
G1 X156.964 Y28.611 E63.39678
G1 X157.411 Y28.492 E63.41216
G1 X157.831 Y28.296 E63.42758
G1 X158.209 Y28.032 E63.44291
G1 X158.537 Y27.704 E63.45834
G1 X158.801 Y27.326 E63.47367
G1 X158.997 Y26.906 E63.48909
G1 X159.116 Y26.459 E63.50447
G1 X159.158 Y25.998 E63.51987
G1 X159.116 Y25.538 E63.53523
G1 X158.997 Y25.091 E63.55062
G1 X158.801 Y24.67 E63.56607
G1 X158.537 Y24.293 E63.58137
G1 X158.209 Y23.964 E63.59682
G1 X157.83 Y23.699 E63.61221
G1 X157.412 Y23.505 E63.62753
G1 X156.965 Y23.385 E63.64293
G1 X156.503 Y23.343 E63.65836
G1 X156.042 Y23.385 E63.67375
G1 X155.596 Y23.505 E63.68911
G1 X155.177 Y23.699 E63.70447
G1 X154.798 Y23.964 E63.71985
G1 X154.469 Y24.293 E63.73533
G1 X154.204 Y24.672 E63.75071
G1 X154.01 Y25.091 E63.76607
G1 X153.89 Y25.537 E63.78143
G1 X153.848 Y25.998 E63.79683
G1 X153.89 Y26.46 E63.81225
G1 X154.01 Y26.907 E63.82765
G1 X154.204 Y27.325 E63.84298
G1 X154.469 Y27.704 E63.85836
G1 X154.798 Y28.032 E63.87381
G1 X155.175 Y28.296 E63.88912
G1 X155.596 Y28.492 E63.90456
G0 F6000 X155.733 Y28.115
G1 F900 X156.113 Y28.216 E63.91764
G1 X156.503 Y28.251 E63.93066
G1 X156.894 Y28.216 E63.94372
G1 X157.274 Y28.115 E63.9568
G1 X157.63 Y27.948 E63.96988
G1 X157.951 Y27.724 E63.9829
G1 X158.229 Y27.446 E63.99597
G1 X158.453 Y27.125 E64.00899
G1 X158.62 Y26.769 E64.02207
G1 X158.721 Y26.389 E64.03515
G1 X158.756 Y25.998 E64.0482
G1 X158.721 Y25.608 E64.06123
G1 X158.62 Y25.228 E64.0743
G1 X158.453 Y24.871 E64.08741
G1 X158.229 Y24.551 E64.10041
G1 X157.951 Y24.272 E64.11351
G1 X157.629 Y24.047 E64.12657
G1 X157.275 Y23.882 E64.13956
G1 X156.895 Y23.78 E64.15265
G1 X156.503 Y23.745 E64.16574
G1 X156.112 Y23.78 E64.17879
G1 X155.733 Y23.882 E64.19185
G1 X155.377 Y24.047 E64.2049
G1 X155.056 Y24.272 E64.21794
G1 X154.777 Y24.551 E64.23106
G1 X154.552 Y24.872 E64.2441
G1 X154.387 Y25.228 E64.25715
G1 X154.285 Y25.607 E64.2702
G1 X154.25 Y25.998 E64.28326
G1 X154.285 Y26.39 E64.29635
G1 X154.387 Y26.77 E64.30944
G1 X154.552 Y27.124 E64.32243
G1 X154.777 Y27.446 E64.33549
G1 X155.056 Y27.724 E64.34859
G1 X155.376 Y27.948 E64.36158
G1 X155.733 Y28.115 E64.37469
G0 F6000 X155.87 Y27.738
;TYPE:WALL-OUTER
G1 F900 X156.182 Y27.821 E64.38543
G1 X156.503 Y27.849 E64.39615
G1 X156.825 Y27.821 E64.4069
G1 X157.137 Y27.738 E64.41763
G1 X157.429 Y27.601 E64.42836
G1 X157.693 Y27.416 E64.43908
G1 X157.921 Y27.188 E64.44981
G1 X158.106 Y26.924 E64.46053
G1 X158.243 Y26.632 E64.47126
G1 X158.326 Y26.32 E64.482
G1 X158.354 Y25.998 E64.49275
G1 X158.326 Y25.677 E64.50346
G1 X158.243 Y25.365 E64.5142
G1 X158.106 Y25.072 E64.52496
G1 X157.921 Y24.809 E64.53565
G1 X157.693 Y24.58 E64.5464
G1 X157.428 Y24.395 E64.55715
G1 X157.137 Y24.259 E64.56784
G1 X156.825 Y24.175 E64.57858
G1 X156.503 Y24.147 E64.58933
G1 X156.182 Y24.175 E64.60005
G1 X155.87 Y24.259 E64.6108
G1 X155.578 Y24.395 E64.62151
G1 X155.314 Y24.58 E64.63223
G1 X155.085 Y24.809 E64.643
G1 X154.9 Y25.073 E64.65372
G1 X154.764 Y25.365 E64.66444
G1 X154.68 Y25.677 E64.67519
G1 X154.652 Y25.998 E64.6859
G1 X154.68 Y26.32 E64.69665
G1 X154.764 Y26.632 E64.7074
G1 X154.9 Y26.923 E64.71808
G1 X155.085 Y27.188 E64.72883
G1 X155.314 Y27.416 E64.73958
G1 X155.577 Y27.601 E64.75027
G1 X155.87 Y27.738 E64.76103
G0 F6000 X155.72 Y28.151
G1 F1500 E58.26103
G0 F6000 X153.69 Y27.621
G0 X155.654 Y26.494
G0 X64.106 Y26.775
G0 X65.562 Y28.509
G0 X64.519 Y28.892
;TYPE:WALL-INNER
G1 F1500 E64.76103
G1 F900 X65.002 Y28.667 E64.77875
G1 X65.439 Y28.362 E64.79648
G1 X65.817 Y27.984 E64.81426
G1 X66.122 Y27.547 E64.83198
G1 X66.345 Y27.066 E64.84962
G1 X66.483 Y26.553 E64.86729
G1 X66.532 Y26.021 E64.88506
G1 X66.483 Y25.488 E64.90286
G1 X66.345 Y24.976 E64.9205
G1 X66.122 Y24.494 E64.93816
G1 X65.817 Y24.057 E64.95588
G1 X65.439 Y23.679 E64.97366
G1 X65.002 Y23.374 E64.99139
G1 X64.519 Y23.15 E65.0091
G1 X64.007 Y23.013 E65.02673
G1 X63.475 Y22.963 E65.0445
G1 X62.942 Y23.013 E65.0623
G1 X62.43 Y23.15 E65.07993
G1 X61.947 Y23.374 E65.09764
G1 X61.511 Y23.679 E65.11534
G1 X61.134 Y24.057 E65.13309
G1 X60.83 Y24.491 E65.15072
G1 X60.604 Y24.976 E65.16851
G1 X60.467 Y25.49 E65.18621
G1 X60.418 Y26.021 E65.20394
G1 X60.467 Y26.551 E65.22165
G1 X60.604 Y27.065 E65.23934
G1 X60.829 Y27.549 E65.25709
G1 X61.133 Y27.984 E65.27474
G1 X61.511 Y28.362 E65.29252
G1 X61.947 Y28.667 E65.31022
G1 X62.43 Y28.891 E65.32793
G1 X62.944 Y29.028 E65.34562
G1 X63.475 Y29.077 E65.36336
G1 X64.005 Y29.028 E65.38106
G1 X64.519 Y28.892 E65.39874
G0 F6000 X64.382 Y28.514
G1 F900 X64.802 Y28.319 E65.41414
G1 X65.181 Y28.054 E65.42953
G1 X65.509 Y27.726 E65.44495
G1 X65.774 Y27.347 E65.46034
G1 X65.968 Y26.929 E65.47566
G1 X66.088 Y26.482 E65.49106
G1 X66.13 Y26.021 E65.50645
G1 X66.088 Y25.559 E65.52188
G1 X65.968 Y25.113 E65.53724
G1 X65.774 Y24.694 E65.5526
G1 X65.509 Y24.315 E65.56798
G1 X65.181 Y23.987 E65.58341
G1 X64.802 Y23.722 E65.59879
G1 X64.382 Y23.527 E65.61419
G1 X63.936 Y23.408 E65.62955
G1 X63.475 Y23.365 E65.64495
G1 X63.013 Y23.408 E65.66038
G1 X62.567 Y23.527 E65.67573
G1 X62.148 Y23.722 E65.6911
G1 X61.769 Y23.987 E65.70648
G1 X61.442 Y24.315 E65.72189
G1 X61.178 Y24.692 E65.7372
G1 X60.981 Y25.113 E65.75266
G1 X60.862 Y25.56 E65.76804
G1 X60.82 Y26.021 E65.78344
G1 X60.862 Y26.481 E65.7988
G1 X60.981 Y26.928 E65.81419
G1 X61.177 Y27.348 E65.8296
G1 X61.441 Y27.726 E65.84494
G1 X61.769 Y28.054 E65.86036
G1 X62.148 Y28.319 E65.87575
G1 X62.567 Y28.514 E65.89112
G1 X63.014 Y28.633 E65.9065
G1 X63.475 Y28.675 E65.9219
G1 X63.935 Y28.633 E65.93726
G1 X64.382 Y28.514 E65.95265
G0 F6000 X64.245 Y28.137
G1 F900 X64.601 Y27.971 E65.96571
G1 X64.923 Y27.746 E65.97878
G1 X65.201 Y27.468 E65.99185
G1 X65.426 Y27.146 E66.00492
G1 X65.591 Y26.792 E66.01791
G1 X65.693 Y26.412 E66.031
G1 X65.728 Y26.021 E66.04405
G1 X65.693 Y25.629 E66.05714
G1 X65.591 Y25.25 E66.0702
G1 X65.426 Y24.894 E66.08325
G1 X65.201 Y24.573 E66.09628
G1 X64.923 Y24.295 E66.10936
G1 X64.601 Y24.07 E66.12243
G1 X64.245 Y23.904 E66.13549
G1 X63.866 Y23.803 E66.14854
G1 X63.475 Y23.767 E66.1616
G1 X63.083 Y23.803 E66.17469
G1 X62.704 Y23.904 E66.18773
G1 X62.349 Y24.07 E66.20077
G1 X62.027 Y24.295 E66.21383
G1 X61.75 Y24.573 E66.22689
G1 X61.525 Y24.893 E66.2399
G1 X61.358 Y25.25 E66.25301
G1 X61.257 Y25.63 E66.26608
G1 X61.222 Y26.021 E66.27914
G1 X61.257 Y26.411 E66.29216
G1 X61.358 Y26.791 E66.30524
G1 X61.525 Y27.147 E66.31832
G1 X61.749 Y27.468 E66.33134
G1 X62.027 Y27.746 E66.34442
G1 X62.349 Y27.971 E66.35748
G1 X62.704 Y28.137 E66.37052
G1 X63.084 Y28.238 E66.38359
G1 X63.475 Y28.273 E66.39665
G1 X63.865 Y28.238 E66.40967
G1 X64.245 Y28.137 E66.42275
G0 F6000 X64.108 Y27.76
;TYPE:WALL-OUTER
G1 F900 X64.4 Y27.623 E66.43348
G1 X64.665 Y27.438 E66.44423
