;FLAVOR:Marlin
;TIME:1901
;Filament used: 1.64511m
;Layer height: 0.2
;MINX:89
;MINY:89
;MINZ:0.2
;MAXX:131
;MAXY:131
;MAXZ:20
;Generated with Cura_SteamEngine master
M82 ;absolute extrusion mode
START_PRINT T_BED=60 T_EXTRUDER=200
G92 E0
G92 E0
G1 F1500 E-6
;LAYER_COUNT:100
;LAYER:0
M107
M204 S500
M205 X8 Y8
G0 F7500 X92.198 Y92.264 Z0.2
;TYPE:SKIRT
G1 F1500 E0
G1 X92.886 Y91.627 E0.02963
G1 X93.626 Y91.051 E0.05926
G1 X94.412 Y90.539 E0.0889
G1 X95.239 Y90.097 E0.11852
G1 X96.101 Y89.727 E0.14816
G1 X96.991 Y89.431 E0.1778
G1 X97.903 Y89.213 E0.20743
G1 X98.83 Y89.072 E0.23706
G1 X99.701 Y89.013 E0.26464
G1 X100.022 Y89.004 E0.27479
G1 X100.33 Y89 E0.28452
G1 X119.293 Y89 E0.8837
G1 X120.149 Y89.011 E0.91075
G1 X121.085 Y89.065 E0.94037
G1 X122.013 Y89.197 E0.96999
G1 X122.927 Y89.409 E0.99963
G1 X123.819 Y89.698 E1.02926
G1 X124.684 Y90.061 E1.0589
G1 X125.514 Y90.497 E1.08852
G1 X126.305 Y91.002 E1.11818
G1 X127.049 Y91.573 E1.14781
G1 X127.742 Y92.205 E1.17745
G1 X128.379 Y92.893 E1.20707
G1 X128.954 Y93.634 E1.23671
G1 X129.465 Y94.42 E1.26633
G1 X129.907 Y95.248 E1.29599
G1 X130.276 Y96.11 E1.32561
G1 X130.571 Y97 E1.35524
G1 X130.789 Y97.912 E1.38487
G1 X130.929 Y98.84 E1.41452
G1 X130.987 Y99.701 E1.44179
G1 X130.996 Y100.021 E1.4519
G1 X131 Y100.33 E1.46167
G1 X130.999 Y119.4 E2.06423
G1 X130.99 Y120.127 E2.0872
G1 X130.939 Y121.064 E2.11685
G1 X130.807 Y121.992 E2.14647
G1 X130.598 Y122.906 E2.17609
G1 X130.311 Y123.799 E2.20573
G1 X129.949 Y124.665 E2.23539
G1 X129.515 Y125.496 E2.26501
G1 X129.011 Y126.287 E2.29465
G1 X128.442 Y127.032 E2.32427
G1 X127.811 Y127.727 E2.35393
G1 X127.124 Y128.365 E2.38355
G1 X126.385 Y128.942 E2.41317
G1 X125.599 Y129.454 E2.44281
G1 X124.773 Y129.897 E2.47243
G1 X123.911 Y130.269 E2.5021
G1 X123.022 Y130.565 E2.5317
G1 X122.11 Y130.785 E2.56134
G1 X121.183 Y130.926 E2.59097
G1 X120.299 Y130.987 E2.61897
G1 X119.978 Y130.996 E2.62912
G1 X119.67 Y131 E2.63885
G1 X100.565 Y130.999 E3.24251
G1 X99.867 Y130.99 E3.26457
G1 X98.931 Y130.938 E3.29419
G1 X98.002 Y130.806 E3.32384
G1 X97.088 Y130.596 E3.35347
G1 X96.195 Y130.309 E3.38311
G1 X95.33 Y129.946 E3.41275
G1 X94.499 Y129.512 E3.44237
G1 X93.708 Y129.008 E3.47201
G1 X92.963 Y128.438 E3.50165
G1 X92.269 Y127.807 E3.53128
G1 X91.632 Y127.12 E3.56089
G1 X91.055 Y126.38 E3.59054
G1 X90.543 Y125.594 E3.62018
G1 X90.1 Y124.767 E3.64982
G1 X89.729 Y123.906 E3.67944
G1 X89.433 Y123.016 E3.70908
G1 X89.214 Y122.104 E3.73871
G1 X89.073 Y121.177 E3.76834
G1 X89.013 Y120.288 E3.7965
G1 X89.004 Y119.955 E3.80702
G1 X89 Y119.658 E3.81641
G1 X89.001 Y100.525 E4.42095
G1 X89.01 Y99.86 E4.44197
G1 X89.063 Y98.924 E4.47159
G1 X89.195 Y97.995 E4.50124
G1 X89.406 Y97.081 E4.53088
G1 X89.694 Y96.189 E4.5605
G1 X90.057 Y95.324 E4.59014
G1 X90.492 Y94.493 E4.61977
G1 X90.996 Y93.703 E4.64938
G1 X91.566 Y92.958 E4.67902
G1 X92.198 Y92.264 E4.70868
G0 F7500 X92.589 Y92.439
G1 F1500 X93.274 Y91.823 E4.73779
G1 X94.01 Y91.27 E4.76688
G1 X94.791 Y90.782 E4.79598
G1 X95.611 Y90.364 E4.82506
G1 X96.465 Y90.019 E4.85416
G1 X97.345 Y89.749 E4.88325
G1 X98.245 Y89.557 E4.91232
G1 X99.159 Y89.443 E4.94143
G1 X99.712 Y89.413 E4.95893
G1 X100.033 Y89.404 E4.96907
G1 X100.33 Y89.4 E4.97846
G1 X119.293 Y89.4 E5.57763
G1 X120.143 Y89.411 E5.60449
G1 X121.062 Y89.464 E5.63358
G1 X121.973 Y89.597 E5.66267
G1 X122.869 Y89.808 E5.69175
G1 X123.743 Y90.096 E5.72083
G1 X124.59 Y90.459 E5.74995
G1 X125.401 Y90.894 E5.77903
G1 X126.171 Y91.398 E5.80811
G1 X126.895 Y91.967 E5.8372
G1 X127.567 Y92.597 E5.86631
G1 X128.182 Y93.282 E5.89539
G1 X128.735 Y94.018 E5.92448
G1 X129.222 Y94.799 E5.95356
G1 X129.639 Y95.62 E5.98266
G1 X129.984 Y96.474 E6.01176
G1 X130.253 Y97.354 E6.04084
G1 X130.445 Y98.255 E6.06995
G1 X130.558 Y99.168 E6.09901
G1 X130.587 Y99.712 E6.11623
G1 X130.596 Y100.032 E6.12634
G1 X130.6 Y100.33 E6.13576
G1 X130.599 Y119.395 E6.73816
G1 X130.59 Y120.122 E6.76113
G1 X130.539 Y121.041 E6.79021
G1 X130.408 Y121.953 E6.81933
G1 X130.198 Y122.849 E6.8484
G1 X129.912 Y123.724 E6.87749
G1 X129.551 Y124.571 E6.90658
G1 X129.117 Y125.383 E6.93568
G1 X128.615 Y126.155 E6.96477
G1 X128.047 Y126.88 E6.99387
G1 X127.419 Y127.553 E7.02296
G1 X126.735 Y128.169 E7.05204
G1 X126 Y128.723 E7.08112
G1 X125.22 Y129.212 E7.11021
G1 X124.4 Y129.631 E7.13931
G1 X123.547 Y129.977 E7.16839
G1 X122.667 Y130.248 E7.19749
G1 X121.767 Y130.441 E7.22657
G1 X120.853 Y130.556 E7.25568
G1 X120.288 Y130.587 E7.27356
G1 X119.967 Y130.596 E7.28371
G1 X119.67 Y130.6 E7.29309
G1 X100.57 Y130.599 E7.8966
G1 X99.872 Y130.59 E7.91865
G1 X98.953 Y130.538 E7.94774
G1 X98.042 Y130.407 E7.97682
G1 X97.146 Y130.197 E8.0059
G1 X96.271 Y129.91 E8.03499
G1 X95.424 Y129.548 E8.0641
G1 X94.612 Y129.114 E8.09319
G1 X93.841 Y128.612 E8.12226
G1 X93.116 Y128.044 E8.15136
G1 X92.443 Y127.415 E8.18047
G1 X91.828 Y126.731 E8.20953
G1 X91.274 Y125.996 E8.23861
G1 X90.786 Y125.215 E8.26771
G1 X90.367 Y124.395 E8.29681
G1 X90.021 Y123.542 E8.32589
G1 X89.751 Y122.662 E8.35498
G1 X89.558 Y121.761 E8.38409
G1 X89.444 Y120.848 E8.41317
G1 X89.413 Y120.277 E8.43123
G1 X89.404 Y119.944 E8.44176
G1 X89.4 Y119.658 E8.4508
G1 X89.401 Y100.531 E9.05516
G1 X89.41 Y99.866 E9.07617
G1 X89.462 Y98.946 E9.10529
G1 X89.594 Y98.035 E9.13437
G1 X89.805 Y97.139 E9.16346
G1 X90.092 Y96.264 E9.19255
G1 X90.455 Y95.418 E9.22164
G1 X90.889 Y94.606 E9.25073
G1 X91.392 Y93.835 E9.27982
G1 X91.961 Y93.111 E9.30892
G1 X92.589 Y92.439 E9.33798
G0 F7500 X92.981 Y92.617
G1 F1500 X93.662 Y92.024 E9.36651
G1 X94.394 Y91.494 E9.39507
G1 X95.169 Y91.031 E9.42359
G1 X95.982 Y90.638 E9.45212
G1 X96.827 Y90.318 E9.48067
G1 X97.696 Y90.075 E9.50918
G1 X98.584 Y89.909 E9.53773
G1 X99.723 Y89.813 E9.57384
G1 X100.044 Y89.804 E9.58399
G1 X100.33 Y89.8 E9.59303
G1 X119.293 Y89.8 E10.19221
G1 X120.137 Y89.811 E10.21888
G1 X121.039 Y89.864 E10.24743
G1 X121.932 Y89.996 E10.27595
G1 X122.81 Y90.207 E10.30448
G1 X123.666 Y90.495 E10.33302
G1 X124.493 Y90.857 E10.36154
G1 X125.285 Y91.292 E10.39009
G1 X126.036 Y91.794 E10.41864
G1 X126.739 Y92.361 E10.44717
G1 X127.389 Y92.988 E10.47571
G1 X127.981 Y93.67 E10.50424
G1 X128.511 Y94.401 E10.53277
G1 X128.973 Y95.177 E10.56131
G1 X129.366 Y95.99 E10.58984
G1 X129.684 Y96.835 E10.61837
G1 X129.927 Y97.705 E10.64691
G1 X130.092 Y98.593 E10.67545
G1 X130.187 Y99.723 E10.71128
G1 X130.196 Y100.043 E10.7214
G1 X130.2 Y100.33 E10.73047
G1 X130.199 Y119.39 E11.33271
G1 X130.19 Y120.117 E11.35568
G1 X130.139 Y121.019 E11.38423
G1 X130.008 Y121.913 E11.41277
G1 X129.799 Y122.791 E11.44129
G1 X129.513 Y123.648 E11.46984
G1 X129.152 Y124.476 E11.49838
G1 X128.72 Y125.268 E11.52689
G1 X128.219 Y126.02 E11.55544
G1 X127.653 Y126.724 E11.58398
G1 X127.028 Y127.375 E11.61249
G1 X126.347 Y127.969 E11.64105
G1 X125.616 Y128.5 E11.6696
G1 X124.842 Y128.964 E11.69811
G1 X124.029 Y129.358 E11.72666
G1 X123.185 Y129.678 E11.75518
G1 X122.315 Y129.923 E11.78373
G1 X121.428 Y130.089 E11.81225
G1 X120.277 Y130.187 E11.84875
G1 X119.956 Y130.196 E11.85889
G1 X119.67 Y130.2 E11.86793
G1 X100.575 Y130.199 E12.47128
G1 X99.877 Y130.19 E12.49334
G1 X98.976 Y130.139 E12.52185
G1 X98.082 Y130.007 E12.5504
G1 X97.204 Y129.798 E12.57892
G1 X96.347 Y129.511 E12.60748
G1 X95.52 Y129.15 E12.63599
G1 X94.727 Y128.717 E12.66454
G1 X93.976 Y128.216 E12.69306
G1 X93.272 Y127.65 E12.72161
G1 X92.621 Y127.024 E12.75014
G1 X92.028 Y126.343 E12.77868
G1 X91.498 Y125.612 E12.8072
G1 X91.034 Y124.837 E12.83575
G1 X90.64 Y124.024 E12.86429
G1 X90.32 Y123.18 E12.89281
G1 X90.076 Y122.31 E12.92136
G1 X89.91 Y121.422 E12.94991
G1 X89.813 Y120.267 E12.98653
G1 X89.804 Y119.934 E12.99706
G1 X89.8 Y119.658 E13.00578
G1 X89.801 Y100.536 E13.60998
G1 X89.81 Y99.871 E13.63099
G1 X89.862 Y98.969 E13.65954
G1 X89.994 Y98.076 E13.68806
G1 X90.204 Y97.198 E13.71659
G1 X90.491 Y96.341 E13.74514
G1 X90.853 Y95.514 E13.77367
G1 X91.286 Y94.722 E13.80219
G1 X91.788 Y93.971 E13.83073
G1 X92.355 Y93.267 E13.85929
G1 X92.981 Y92.617 E13.88781
G1 F1500 E7.88781
;MESH:CalibrationCube
G0 F7500 X100.614 Y99.335
G0 X100.614 Y100.614
G0 X118.818 Y101.182
G0 X119 Y119
;TYPE:WALL-INNER
G1 F1500 E13.88781
G1 X101 Y119 E14.45656
G1 X101 Y101 E15.0253
G1 X119 Y101 E15.59405
G1 X119 Y119 E16.1628
G0 F7500 X119.4 Y119.4
G1 F1500 X100.6 Y119.4 E16.75683
G1 X100.6 Y100.6 E17.35085
G1 X119.4 Y100.6 E17.94488
G1 X119.4 Y119.4 E18.53891
G0 F7500 X119.6 Y119.6
;TYPE:WALL-OUTER
G1 F1500 X100.4 Y119.6 E19.11524
G1 X100.4 Y100.4 E19.69157
G1 X119.6 Y100.4 E20.2679
G1 X119.6 Y119.6 E20.84423
G0 F7500 X119.2 Y119.6
G0 X119.16 Y119.16
G0 X118.92 Y101.2
;TYPE:SKIN
G1 F1500 X101.08 Y101.2 E21.40792
G0 F7500 X101.08 Y101.6
G1 F1500 X118.92 Y101.6 E21.97162
G0 F7500 X118.92 Y102
G1 F1500 X101.08 Y102 E22.53531
G0 F7500 X101.08 Y102.4
G1 F1500 X118.92 Y102.4 E23.099
G0 F7500 X118.92 Y102.8
G1 F1500 X101.08 Y102.8 E23.6627
G0 F7500 X101.08 Y103.2
G1 F1500 X118.92 Y103.2 E24.22639
G0 F7500 X118.92 Y103.6
G1 F1500 X101.08 Y103.6 E24.79008
G0 F7500 X101.08 Y104
G1 F1500 X118.92 Y104 E25.35377
G0 F7500 X118.92 Y104.4
G1 F1500 X101.08 Y104.4 E25.91747
G0 F7500 X101.08 Y104.8
G1 F1500 X118.92 Y104.8 E26.48116
G0 F7500 X118.92 Y105.2
G1 F1500 X101.08 Y105.2 E27.04485
G0 F7500 X101.08 Y105.6
G1 F1500 X118.92 Y105.6 E27.60855
G0 F7500 X118.92 Y106
G1 F1500 X101.08 Y106 E28.17224
G0 F7500 X101.08 Y106.4
G1 F1500 X118.92 Y106.4 E28.73593
G0 F7500 X118.92 Y106.8
G1 F1500 X101.08 Y106.8 E29.29962
G0 F7500 X101.08 Y107.2
G1 F1500 X118.92 Y107.2 E29.86332
G0 F7500 X118.92 Y107.6
G1 F1500 X101.08 Y107.6 E30.42701
G0 F7500 X101.08 Y108
G1 F1500 X118.92 Y108 E30.9907
G0 F7500 X118.92 Y108.4
G1 F1500 X101.08 Y108.4 E31.55439
G0 F7500 X101.08 Y108.8
G1 F1500 X118.92 Y108.8 E32.11809
G0 F7500 X118.92 Y109.2
G1 F1500 X101.08 Y109.2 E32.68178
G0 F7500 X101.08 Y109.6
G1 F1500 X118.92 Y109.6 E33.24547
G0 F7500 X118.92 Y110
G1 F1500 X101.08 Y110 E33.80917
G0 F7500 X101.08 Y110.4
G1 F1500 X118.92 Y110.4 E34.37286
G0 F7500 X118.92 Y110.8
G1 F1500 X101.08 Y110.8 E34.93655
G0 F7500 X101.08 Y111.2
G1 F1500 X118.92 Y111.2 E35.50024
G0 F7500 X118.92 Y111.6
G1 F1500 X101.08 Y111.6 E36.06394
G0 F7500 X101.08 Y112
G1 F1500 X118.92 Y112 E36.62763
G0 F7500 X118.92 Y112.4
G1 F1500 X101.08 Y112.4 E37.19132
G0 F7500 X101.08 Y112.8
G1 F1500 X118.92 Y112.8 E37.75502
G0 F7500 X118.92 Y113.2
G1 F1500 X101.08 Y113.2 E38.31871
G0 F7500 X101.08 Y113.6
G1 F1500 X118.92 Y113.6 E38.8824
G0 F7500 X118.92 Y114
G1 F1500 X101.08 Y114 E39.44609
G0 F7500 X101.08 Y114.4
G1 F1500 X118.92 Y114.4 E40.00979
G0 F7500 X118.92 Y114.8
G1 F1500 X101.08 Y114.8 E40.57348
G0 F7500 X101.08 Y115.2
G1 F1500 X118.92 Y115.2 E41.13717
G0 F7500 X118.92 Y115.6
G1 F1500 X101.08 Y115.6 E41.70086
G0 F7500 X101.08 Y116
G1 F1500 X118.92 Y116 E42.26456
G0 F7500 X118.92 Y116.4
G1 F1500 X101.08 Y116.4 E42.82825
G0 F7500 X101.08 Y116.8
G1 F1500 X118.92 Y116.8 E43.39194
G0 F7500 X118.92 Y117.2
G1 F1500 X101.08 Y117.2 E43.95564
G0 F7500 X101.08 Y117.6
G1 F1500 X118.92 Y117.6 E44.51933
G0 F7500 X118.92 Y118
G1 F1500 X101.08 Y118 E45.08302
G0 F7500 X101.08 Y118.4
G1 F1500 X118.92 Y118.4 E45.64671
G0 F7500 X118.92 Y118.8
G1 F1500 X101.08 Y118.8 E46.21041
M104 S200
G0 F7500 X100.928 Y119
;MESH:NONMESH
G0 F300 X100.928 Y119 Z0.4
G0 F7500 X119 Y119
;TIME_ELAPSED:69.589820
;LAYER:1
M106 S85
;TYPE:WALL-INNER
;MESH:CalibrationCube
G1 F2250 X101 Y119 E46.80909
G1 X101 Y101 E47.40777
G1 X119 Y101 E48.00645
G1 X119 Y119 E48.60514
G0 F8250 X119.4 Y119.4
G1 F2250 X100.6 Y119.4 E49.23043
G1 X100.6 Y100.6 E49.85572
G1 X119.4 Y100.6 E50.48101
G1 X119.4 Y119.4 E51.1063
G0 F8250 X119.6 Y119.6
;TYPE:WALL-OUTER
G1 F1500 X100.4 Y119.6 E51.71296
G1 X100.4 Y100.4 E52.31963
G1 X119.6 Y100.4 E52.92629
G1 X119.6 Y119.6 E53.53296
G0 F8250 X119.2 Y119.6
G0 X119.16 Y119.16
G0 X118.92 Y101.2
;TYPE:SKIN
G1 F1500 X101.08 Y101.2 E54.12632
G0 F8250 X101.08 Y101.6
G1 F1500 X118.92 Y101.6 E54.71968
G0 F8250 X118.92 Y102
G1 F1500 X101.08 Y102 E55.31304
G0 F8250 X101.08 Y102.4
G1 F1500 X118.92 Y102.4 E55.9064
G0 F8250 X118.92 Y102.8
G1 F1500 X101.08 Y102.8 E56.49976
G0 F8250 X101.08 Y103.2
G1 F1500 X118.92 Y103.2 E57.09312
G0 F8250 X118.92 Y103.6
G1 F1500 X101.08 Y103.6 E57.68648
G0 F8250 X101.08 Y104
G1 F1500 X118.92 Y104 E58.27984
G0 F8250 X118.92 Y104.4
G1 F1500 X101.08 Y104.4 E58.87321
G0 F8250 X101.08 Y104.8
G1 F1500 X118.92 Y104.8 E59.46657
G0 F8250 X118.92 Y105.2
G1 F1500 X101.08 Y105.2 E60.05993
G0 F8250 X101.08 Y105.6
G1 F1500 X118.92 Y105.6 E60.65329
G0 F8250 X118.92 Y106
G1 F1500 X101.08 Y106 E61.24665
G0 F8250 X101.08 Y106.4
G1 F1500 X118.92 Y106.4 E61.84001
G0 F8250 X118.92 Y106.8
G1 F1500 X101.08 Y106.8 E62.43337
G0 F8250 X101.08 Y107.2
G1 F1500 X118.92 Y107.2 E63.02673
G0 F8250 X118.92 Y107.6
G1 F1500 X101.08 Y107.6 E63.62009
G0 F8250 X101.08 Y108
G1 F1500 X118.92 Y108 E64.21345
G0 F8250 X118.92 Y108.4
G1 F1500 X101.08 Y108.4 E64.80681
G0 F8250 X101.08 Y108.8
G1 F1500 X118.92 Y108.8 E65.40017
G0 F8250 X118.92 Y109.2
G1 F1500 X101.08 Y109.2 E65.99353
G0 F8250 X101.08 Y109.6
G1 F1500 X118.92 Y109.6 E66.5869
G0 F8250 X118.92 Y110
G1 F1500 X101.08 Y110 E67.18026
G0 F8250 X101.08 Y110.4
G1 F1500 X118.92 Y110.4 E67.77362
G0 F8250 X118.92 Y110.8
G1 F1500 X101.08 Y110.8 E68.36698
G0 F8250 X101.08 Y111.2
G1 F1500 X118.92 Y111.2 E68.96034
G0 F8250 X118.92 Y111.6
G1 F1500 X101.08 Y111.6 E69.5537
G0 F8250 X101.08 Y112
G1 F1500 X118.92 Y112 E70.14706
G0 F8250 X118.92 Y112.4
G1 F1500 X101.08 Y112.4 E70.74042
G0 F8250 X101.08 Y112.8
G1 F1500 X118.92 Y112.8 E71.33378
G0 F8250 X118.92 Y113.2
G1 F1500 X101.08 Y113.2 E71.92714
G0 F8250 X101.08 Y113.6
G1 F1500 X118.92 Y113.6 E72.5205
G0 F8250 X118.92 Y114
G1 F1500 X101.08 Y114 E73.11386
G0 F8250 X101.08 Y114.4
G1 F1500 X118.92 Y114.4 E73.70723
G0 F8250 X118.92 Y114.8
G1 F1500 X101.08 Y114.8 E74.30059
G0 F8250 X101.08 Y115.2
G1 F1500 X118.92 Y115.2 E74.89395
G0 F8250 X118.92 Y115.6
G1 F1500 X101.08 Y115.6 E75.48731
G0 F8250 X101.08 Y116
G1 F1500 X118.92 Y116 E76.08067
G0 F8250 X118.92 Y116.4
G1 F1500 X101.08 Y116.4 E76.67403
G0 F8250 X101.08 Y116.8
G1 F1500 X118.92 Y116.8 E77.26739
G0 F8250 X118.92 Y117.2
G1 F1500 X101.08 Y117.2 E77.86075
G0 F8250 X101.08 Y117.6
G1 F1500 X118.92 Y117.6 E78.45411
G0 F8250 X118.92 Y118
G1 F1500 X101.08 Y118 E79.04747
G0 F8250 X101.08 Y118.4
G1 F1500 X118.92 Y118.4 E79.64083
G0 F8250 X118.92 Y118.8
G1 F1500 X101.08 Y118.8 E80.23419
G0 F8250 X100.928 Y119
;MESH:NONMESH
G0 F300 X100.928 Y119 Z0.6
G0 F8250 X119 Y119
;TIME_ELAPSED:113.595240
;LAYER:2
M106 S170
;TYPE:WALL-INNER
;MESH:CalibrationCube
G1 F3000 X101 Y119 E80.83288
G1 X101 Y101 E81.43156
G1 X119 Y101 E82.03024
G1 X119 Y119 E82.62892
G0 F9000 X119.4 Y119.4
G1 F3000 X100.6 Y119.4 E83.25421
G1 X100.6 Y100.6 E83.87951
G1 X119.4 Y100.6 E84.5048
G1 X119.4 Y119.4 E85.13009
G0 F9000 X119.6 Y119.6
;TYPE:WALL-OUTER
G1 F1500 X100.4 Y119.6 E85.73675
G1 X100.4 Y100.4 E86.34342
G1 X119.6 Y100.4 E86.95008
G1 X119.6 Y119.6 E87.55675
G0 F9000 X119.2 Y119.6
G0 X119.16 Y119.16
G0 X118.92 Y101.2
;TYPE:SKIN
G1 F1500 X101.08 Y101.2 E88.15011
G0 F9000 X101.08 Y101.6
G1 F1500 X118.92 Y101.6 E88.74347
G0 F9000 X118.92 Y102
G1 F1500 X101.08 Y102 E89.33683
G0 F9000 X101.08 Y102.4
G1 F1500 X118.92 Y102.4 E89.93019
G0 F9000 X118.92 Y102.8
G1 F1500 X101.08 Y102.8 E90.52355
G0 F9000 X101.08 Y103.2
G1 F1500 X118.92 Y103.2 E91.11691
G0 F9000 X118.92 Y103.6
G1 F1500 X101.08 Y103.6 E91.71027
G0 F9000 X101.08 Y104
G1 F1500 X118.92 Y104 E92.30363
G0 F9000 X118.92 Y104.4
G1 F1500 X101.08 Y104.4 E92.89699
G0 F9000 X101.08 Y104.8
G1 F1500 X118.92 Y104.8 E93.49035
G0 F9000 X118.92 Y105.2
G1 F1500 X101.08 Y105.2 E94.08371
G0 F9000 X101.08 Y105.6
G1 F1500 X118.92 Y105.6 E94.67708
G0 F9000 X118.92 Y106
G1 F1500 X101.08 Y106 E95.27044
G0 F9000 X101.08 Y106.4
G1 F1500 X118.92 Y106.4 E95.8638
G0 F9000 X118.92 Y106.8
G1 F1500 X101.08 Y106.8 E96.45716
G0 F9000 X101.08 Y107.2
G1 F1500 X118.92 Y107.2 E97.05052
G0 F9000 X118.92 Y107.6
G1 F1500 X101.08 Y107.6 E97.64388
G0 F9000 X101.08 Y108
G1 F1500 X118.92 Y108 E98.23724
G0 F9000 X118.92 Y108.4
G1 F1500 X101.08 Y108.4 E98.8306
G0 F9000 X101.08 Y108.8
