;FLAVOR:Marlin
;TIME:4653
;Filament used: 8.29226m
;Layer height: 0.32
;MINX:66.015
;MINY:66.033
;MINZ:0.32
;MAXX:153.985
;MAXY:153.967
;MAXZ:49.92
;Generated with Cura_SteamEngine master
M82 ;absolute extrusion mode
START_PRINT T_BED=60 T_EXTRUDER=200
G92 E0
G92 E0
G1 F1500 E-6.5
;LAYER_COUNT:156
;LAYER:0
M107
G0 F6000 X70.528 Y70.883 Z0.32
;TYPE:SKIRT
G1 F1500 E0
G1 F1200 X71.192 Y70.221 E0.0499
G1 X71.975 Y69.569 E0.10412
G1 X72.621 Y69.08 E0.14724
G1 X72.943 Y68.846 E0.16842
G1 X73.144 Y68.705 E0.18148
G1 X73.934 Y68.199 E0.23141
G1 X74.798 Y67.747 E0.2833
G1 X75.503 Y67.417 E0.32472
G1 X75.803 Y67.282 E0.34223
G1 X76.046 Y67.177 E0.35632
G1 X76.922 Y66.842 E0.40623
G1 X77.907 Y66.563 E0.46071
G1 X78.652 Y66.389 E0.50142
G1 X78.989 Y66.316 E0.51977
G1 X79.253 Y66.263 E0.5341
G1 X80.179 Y66.118 E0.58398
G1 X81.193 Y66.05 E0.63806
G1 X81.975 Y66.034 E0.67969
G1 X82.372 Y66.033 E0.70081
G1 X82.628 Y66.037 E0.71444
G1 X83.564 Y66.092 E0.76433
G1 X84.53 Y66.233 E0.81629
G1 X85.327 Y66.386 E0.85947
G1 X85.697 Y66.464 E0.8796
G1 X86.958 Y66.751 E0.94842
G1 X89.535 Y67.3 E1.08863
G1 X91.98 Y67.75 E1.22093
G1 X94.481 Y68.136 E1.3556
G1 X96.987 Y68.452 E1.49002
G1 X99.48 Y68.695 E1.62331
G1 X101.992 Y68.867 E1.75731
G1 X104.514 Y68.969 E1.89163
G1 X106.906 Y69 E2.01893
G1 X113.134 Y69 E2.35036
G1 X115.742 Y68.963 E2.48916
G1 X118.264 Y68.856 E2.6235
G1 X120.758 Y68.679 E2.75655
G1 X123.258 Y68.431 E2.89024
G1 X125.751 Y68.112 E3.02399
G1 X128.244 Y67.721 E3.15828
G1 X130.736 Y67.257 E3.29318
G1 X133.543 Y66.649 E3.44602
G1 X134.649 Y66.39 E3.50647
G1 X135.028 Y66.308 E3.52711
G1 X135.297 Y66.255 E3.5417
G1 X136.224 Y66.114 E3.59159
G1 X137.197 Y66.05 E3.64349
G1 X137.974 Y66.034 E3.68484
G1 X138.372 Y66.033 E3.70602
G1 X138.628 Y66.037 E3.71965
G1 X139.564 Y66.092 E3.76954
G1 X140.527 Y66.233 E3.82134
G1 X141.325 Y66.386 E3.86458
G1 X141.701 Y66.465 E3.88502
G1 X141.942 Y66.52 E3.89818
G1 X142.847 Y66.767 E3.9481
G1 X143.781 Y67.113 E4.00111
G1 X144.457 Y67.399 E4.04017
G1 X144.739 Y67.523 E4.05656
G1 X145.015 Y67.649 E4.07271
G1 X145.851 Y68.075 E4.12264
G1 X146.749 Y68.641 E4.17913
G1 X147.397 Y69.094 E4.2212
G1 X147.688 Y69.303 E4.24027
G1 X147.879 Y69.446 E4.25297
G1 X148.605 Y70.04 E4.30288
G1 X149.298 Y70.715 E4.35437
G1 X149.854 Y71.306 E4.39755
G1 X150.159 Y71.644 E4.42178
G1 X150.32 Y71.83 E4.43487
G1 X150.903 Y72.565 E4.48479
G1 X151.414 Y73.334 E4.53393
G1 X151.814 Y73.995 E4.57504
G1 X152.003 Y74.319 E4.595
G1 X152.13 Y74.546 E4.60884
G1 X152.552 Y75.383 E4.65873
G1 X152.922 Y76.312 E4.71194
G1 X153.177 Y77.047 E4.75334
G1 X153.288 Y77.383 E4.77217
G1 X153.368 Y77.64 E4.7865
G1 X153.608 Y78.546 E4.83637
G1 X153.781 Y79.552 E4.8907
G1 X153.875 Y80.308 E4.93124
G1 X153.912 Y80.652 E4.94965
G1 X153.938 Y80.933 E4.96467
G1 X153.985 Y81.869 E5.01454
G1 X153.945 Y82.884 E5.0686
G1 X153.879 Y83.655 E5.10978
G1 X153.843 Y84.01 E5.12876
G1 X153.805 Y84.331 E5.14597
G1 X153.587 Y85.564 E5.2126
G1 X153.394 Y86.382 E5.25733
G1 X152.843 Y88.871 E5.39299
G1 X152.358 Y91.399 E5.52997
G1 X151.957 Y93.873 E5.66335
G1 X151.631 Y96.318 E5.79461
G1 X151.362 Y98.873 E5.93133
G1 X151.172 Y101.365 E6.06433
G1 X151.052 Y103.867 E6.19763
G1 X151 Y106.953 E6.36188
G1 X151 Y113.044 E6.68602
G1 X151.037 Y115.652 E6.82482
G1 X151.144 Y118.174 E6.95915
G1 X151.321 Y120.668 E7.09221
G1 X151.569 Y123.166 E7.2258
G1 X151.887 Y125.655 E7.35933
G1 X152.281 Y128.164 E7.49448
G1 X152.739 Y130.627 E7.6278
G1 X153.275 Y133.121 E7.76355
G1 X153.554 Y134.285 E7.82725
G1 X153.772 Y135.486 E7.89221
G1 X153.874 Y136.303 E7.93602
G1 X153.912 Y136.649 E7.95455
G1 X153.938 Y136.929 E7.96951
G1 X153.985 Y137.866 E8.01944
G1 X153.946 Y138.875 E8.07317
G1 X153.882 Y139.63 E8.1135
G1 X153.845 Y139.989 E8.1327
G1 X153.812 Y140.269 E8.14771
G1 X153.663 Y141.194 E8.19756
G1 X153.416 Y142.167 E8.25099
G1 X153.186 Y142.927 E8.29324
G1 X153.066 Y143.301 E8.31414
G1 X152.987 Y143.532 E8.32714
G1 X152.646 Y144.405 E8.37701
G1 X152.216 Y145.275 E8.42866
G1 X151.849 Y145.942 E8.46917
G1 X151.661 Y146.271 E8.48934
G1 X151.512 Y146.521 E8.50482
G1 X150.998 Y147.305 E8.55471
G1 X150.384 Y148.084 E8.6075
G1 X149.879 Y148.668 E8.64858
G1 X149.654 Y148.92 E8.66656
G1 X149.482 Y149.107 E8.68008
G1 X148.818 Y149.769 E8.72998
G1 X148.025 Y150.431 E8.78495
G1 X147.379 Y150.92 E8.82807
G1 X147.078 Y151.139 E8.84788
G1 X146.878 Y151.28 E8.8609
G1 X146.089 Y151.788 E8.91084
G1 X145.203 Y152.253 E8.96409
G1 X144.5 Y152.582 E9.00539
G1 X144.205 Y152.715 E9.02261
G1 X143.96 Y152.821 E9.03682
G1 X143.084 Y153.156 E9.08673
G1 X142.091 Y153.437 E9.14165
G1 X141.345 Y153.611 E9.18241
G1 X141.011 Y153.684 E9.2006
G1 X140.747 Y153.737 E9.21493
G1 X139.821 Y153.882 E9.26481
G1 X138.807 Y153.95 E9.31889
G1 X138.025 Y153.966 E9.36052
G1 X137.628 Y153.967 E9.38165
G1 X137.372 Y153.963 E9.39527
G1 X136.436 Y153.908 E9.44517
G1 X135.47 Y153.767 E9.49712
G1 X134.673 Y153.614 E9.54031
G1 X134.303 Y153.536 E9.56043
G1 X133.042 Y153.249 E9.62925
G1 X130.465 Y152.7 E9.76947
G1 X128.02 Y152.25 E9.90177
G1 X125.519 Y151.864 E10.03643
G1 X123.013 Y151.548 E10.17085
G1 X120.52 Y151.305 E10.30415
G1 X118.008 Y151.133 E10.43814
G1 X115.486 Y151.031 E10.57246
G1 X113.094 Y151 E10.69976
G1 X106.866 Y151 E11.0312
G1 X104.258 Y151.037 E11.17
G1 X101.736 Y151.144 E11.30433
G1 X99.242 Y151.321 E11.43738
G1 X96.742 Y151.569 E11.57108
G1 X94.249 Y151.888 E11.70483
G1 X91.756 Y152.279 E11.83912
G1 X89.264 Y152.743 E11.97401
G1 X86.457 Y153.351 E12.12685
G1 X85.351 Y153.61 E12.1873
G1 X84.972 Y153.692 E12.20794
G1 X84.703 Y153.745 E12.22253
G1 X83.776 Y153.886 E12.27243
G1 X82.803 Y153.95 E12.32432
G1 X82.026 Y153.966 E12.36568
G1 X81.628 Y153.967 E12.38686
G1 X81.372 Y153.963 E12.40048
G1 X80.436 Y153.908 E12.45038
G1 X79.473 Y153.767 E12.50217
G1 X78.675 Y153.614 E12.54541
G1 X78.299 Y153.535 E12.56586
G1 X78.058 Y153.48 E12.57901
G1 X77.153 Y153.233 E12.62893
G1 X76.219 Y152.887 E12.68194
G1 X75.543 Y152.601 E12.721
G1 X75.261 Y152.477 E12.73739
G1 X74.985 Y152.351 E12.75354
G1 X74.149 Y151.925 E12.80347
G1 X73.251 Y151.359 E12.85996
G1 X72.603 Y150.906 E12.90204
G1 X72.312 Y150.697 E12.9211
G1 X72.121 Y150.554 E12.9338
G1 X71.395 Y149.96 E12.98372
G1 X70.702 Y149.285 E13.0352
G1 X70.146 Y148.694 E13.07838
G1 X69.841 Y148.356 E13.10261
G1 X69.68 Y148.17 E13.1157
G1 X69.097 Y147.435 E13.16562
G1 X68.586 Y146.666 E13.21476
G1 X68.186 Y146.005 E13.25587
G1 X67.997 Y145.681 E13.27583
G1 X67.87 Y145.454 E13.28968
G1 X67.448 Y144.617 E13.33956
G1 X67.078 Y143.688 E13.39277
G1 X66.823 Y142.953 E13.43418
G1 X66.712 Y142.617 E13.45301
G1 X66.632 Y142.36 E13.46733
G1 X66.392 Y141.454 E13.51721
G1 X66.218 Y140.441 E13.57191
G1 X66.123 Y139.673 E13.61309
G1 X66.087 Y139.341 E13.63086
G1 X66.062 Y139.072 E13.64523
G1 X66.015 Y138.135 E13.69516
G1 X66.055 Y137.116 E13.74943
G1 X66.121 Y136.345 E13.79061
G1 X66.156 Y136.002 E13.80896
G1 X66.194 Y135.678 E13.82632
G1 X66.415 Y134.424 E13.89408
G1 X66.608 Y133.607 E13.93875
G1 X67.157 Y131.129 E14.07382
G1 X67.642 Y128.601 E14.21081
G1 X68.043 Y126.127 E14.34418
G1 X68.369 Y123.682 E14.47545
G1 X68.638 Y121.127 E14.61216
G1 X68.828 Y118.635 E14.74516
G1 X68.948 Y116.133 E14.87846
G1 X69 Y113.047 E15.04271
G1 X69 Y106.956 E15.36685
G1 X68.963 Y104.348 E15.50565
G1 X68.856 Y101.826 E15.63999
G1 X68.679 Y99.332 E15.77304
G1 X68.432 Y96.837 E15.90647
G1 X68.112 Y94.336 E16.04064
G1 X67.721 Y91.847 E16.17472
G1 X67.26 Y89.367 E16.30896
G1 X66.725 Y86.879 E16.44439
G1 X66.446 Y85.715 E16.50809
G1 X66.227 Y84.511 E16.57321
G1 X66.123 Y83.676 E16.61799
G1 X66.085 Y83.319 E16.6371
G1 X66.061 Y83.057 E16.6511
G1 X66.015 Y82.121 E16.70097
G1 X66.055 Y81.116 E16.75449
G1 X66.121 Y80.345 E16.79567
G1 X66.156 Y80.005 E16.81386
G1 X66.187 Y79.74 E16.82806
G1 X66.335 Y78.814 E16.87796
G1 X66.585 Y77.827 E16.93215
G1 X66.816 Y77.065 E16.97452
G1 X66.935 Y76.695 E16.9952
G1 X67.013 Y76.467 E17.00803
G1 X67.354 Y75.594 E17.0579
G1 X67.786 Y74.722 E17.10969
G1 X68.166 Y74.032 E17.15161
G1 X68.365 Y73.685 E17.1729
G1 X68.501 Y73.458 E17.18698
G1 X69.017 Y72.674 E17.23692
G1 X69.616 Y71.916 E17.28834
G1 X70.127 Y71.325 E17.32991
G1 X70.362 Y71.063 E17.34864
G1 X70.528 Y70.883 E17.36167
G0 F6000 X70.822 Y71.154
G1 F1200 X71.475 Y70.505 E17.41067
G1 X72.216 Y69.888 E17.46198
G1 X72.862 Y69.399 E17.5051
G1 X73.173 Y69.173 E17.52556
G1 X73.374 Y69.032 E17.53862
G1 X74.15 Y68.537 E17.5876
G1 X74.967 Y68.11 E17.63666
G1 X75.672 Y67.78 E17.67809
G1 X75.961 Y67.65 E17.69495
G1 X76.204 Y67.545 E17.70904
G1 X77.065 Y67.216 E17.75809
G1 X77.998 Y66.953 E17.80967
G1 X78.743 Y66.779 E17.85039
G1 X79.068 Y66.708 E17.86809
G1 X79.332 Y66.655 E17.88242
G1 X80.241 Y66.514 E17.93137
G1 X81.201 Y66.45 E17.98257
G1 X81.983 Y66.434 E18.0242
G1 X82.366 Y66.433 E18.04458
G1 X82.622 Y66.437 E18.0582
G1 X83.541 Y66.492 E18.1072
G1 X84.454 Y66.626 E18.1563
G1 X85.251 Y66.779 E18.19949
G1 X85.608 Y66.854 E18.2189
G1 X86.85 Y67.137 E18.28669
G1 X89.451 Y67.691 E18.42821
G1 X91.919 Y68.145 E18.56175
G1 X94.437 Y68.534 E18.69734
G1 X96.939 Y68.849 E18.83154
G1 X99.447 Y69.093 E18.96564
G1 X101.985 Y69.268 E19.10102
G1 X104.493 Y69.369 E19.23459
G1 X106.901 Y69.4 E19.36275
G1 X113.14 Y69.4 E19.69477
G1 X115.764 Y69.363 E19.83442
G1 X118.273 Y69.256 E19.96806
G1 X120.793 Y69.078 E20.1025
G1 X123.308 Y68.829 E20.23699
G1 X125.797 Y68.51 E20.37053
G1 X128.349 Y68.109 E20.508
G1 X130.79 Y67.655 E20.64013
G1 X133.652 Y67.034 E20.79598
G1 X134.74 Y66.78 E20.85544
G1 X135.105 Y66.701 E20.87531
G1 X135.374 Y66.648 E20.8899
G1 X136.284 Y66.509 E20.93889
G1 X137.205 Y66.45 E20.988
G1 X137.982 Y66.434 E21.02936
G1 X138.366 Y66.433 E21.0498
G1 X138.622 Y66.437 E21.06342
G1 X139.541 Y66.492 E21.11241
G1 X140.452 Y66.626 E21.16142
G1 X141.25 Y66.779 E21.20466
G1 X141.612 Y66.855 E21.22434
G1 X141.853 Y66.91 E21.23749
G1 X142.741 Y67.153 E21.28649
G1 X143.625 Y67.482 E21.33668
G1 X144.301 Y67.768 E21.37574
G1 X144.573 Y67.887 E21.39154
G1 X144.849 Y68.013 E21.40769
G1 X145.669 Y68.432 E21.45669
G1 X146.52 Y68.968 E21.51022
G1 X147.168 Y69.421 E21.55229
G1 X147.448 Y69.624 E21.57069
G1 X147.639 Y69.767 E21.58339
G1 X148.351 Y70.35 E21.63236
G1 X149.006 Y70.989 E21.68106
G1 X149.562 Y71.58 E21.72424
G1 X149.857 Y71.906 E21.74764
G1 X150.018 Y72.092 E21.76073
G1 X150.589 Y72.813 E21.80967
G1 X151.072 Y73.541 E21.85617
G1 X151.472 Y74.202 E21.89728
G1 X151.654 Y74.515 E21.91655
G1 X151.781 Y74.742 E21.93039
G1 X152.195 Y75.564 E21.97937
G1 X152.544 Y76.443 E22.0297
G1 X152.799 Y77.178 E22.0711
G1 X152.906 Y77.501 E22.08921
G1 X152.986 Y77.758 E22.10353
G1 X153.221 Y78.649 E22.15257
G1 X153.384 Y79.601 E22.20397
G1 X153.478 Y80.357 E22.24451
G1 X153.514 Y80.688 E22.26223
G1 X153.54 Y80.969 E22.27724
G1 X153.585 Y81.889 E22.32626
G1 X153.546 Y82.85 E22.37745
G1 X153.48 Y83.621 E22.41862
G1 X153.445 Y83.963 E22.43692
G1 X153.407 Y84.284 E22.45412
G1 X153.198 Y85.472 E22.51831
G1 X153.01 Y86.267 E22.56179
G1 X152.445 Y88.822 E22.70104
G1 X151.965 Y91.32 E22.83641
G1 X151.564 Y93.798 E22.96999
G1 X151.231 Y96.295 E23.10405
G1 X150.964 Y98.833 E23.23986
G1 X150.775 Y101.316 E23.37237
G1 X150.652 Y103.873 E23.50861
G1 X150.6 Y106.947 E23.67222
G1 X150.6 Y113.05 E23.99699
G1 X150.637 Y115.674 E24.13665
G1 X150.744 Y118.183 E24.27029
G1 X150.922 Y120.699 E24.40451
G1 X151.172 Y123.223 E24.53949
G1 X151.493 Y125.731 E24.67404
G1 X151.88 Y128.193 E24.80667
G1 X152.355 Y130.747 E24.94492
G1 X152.876 Y133.172 E25.07691
G1 X153.165 Y134.378 E25.14291
G1 X153.375 Y135.536 E25.20554
G1 X153.477 Y136.353 E25.24935
G1 X153.514 Y136.686 E25.26718
G1 X153.54 Y136.966 E25.28215
G1 X153.585 Y137.885 E25.33111
G1 X153.547 Y138.841 E25.38202
G1 X153.483 Y139.596 E25.42235
G1 X153.448 Y139.942 E25.44085
G1 X153.415 Y140.222 E25.45586
G1 X153.268 Y141.13 E25.50481
G1 X153.034 Y142.051 E25.55538
G1 X152.804 Y142.811 E25.59763
G1 X152.688 Y143.171 E25.61776
G1 X152.609 Y143.402 E25.63075
G1 X152.273 Y144.259 E25.67974
G1 X151.866 Y145.082 E25.7286
G1 X151.499 Y145.749 E25.76911
G1 X151.317 Y146.066 E25.78856
G1 X151.168 Y146.316 E25.80405
G1 X150.663 Y147.085 E25.85301
G1 X150.081 Y147.822 E25.90299
G1 X149.576 Y148.406 E25.94407
G1 X149.36 Y148.649 E25.96137
G1 X149.188 Y148.836 E25.97489
G1 X148.536 Y149.486 E26.02389
G1 X147.784 Y150.112 E26.07596
G1 X147.138 Y150.601 E26.11907
G1 X146.848 Y150.812 E26.13816
G1 X146.648 Y150.953 E26.15118
G1 X145.873 Y151.451 E26.2002
G1 X145.033 Y151.891 E26.25067
G1 X144.33 Y152.22 E26.29197
G1 X144.046 Y152.348 E26.30855
G1 X143.801 Y152.454 E26.32276
G1 X142.941 Y152.782 E26.37174
G1 X142 Y153.048 E26.42378
G1 X141.254 Y153.222 E26.46454
G1 X140.932 Y153.292 E26.48208
G1 X140.668 Y153.345 E26.49641
G1 X139.759 Y153.486 E26.54536
G1 X138.799 Y153.55 E26.59656
G1 X138.017 Y153.566 E26.63818
G1 X137.634 Y153.567 E26.65857
G1 X137.378 Y153.563 E26.67219
G1 X136.459 Y153.508 E26.72118
G1 X135.546 Y153.374 E26.77029
G1 X134.749 Y153.221 E26.81348
G1 X134.392 Y153.146 E26.83289
G1 X133.15 Y152.863 E26.90068
G1 X130.549 Y152.309 E27.0422
G1 X128.081 Y151.855 E27.17574
G1 X125.563 Y151.466 E27.31133
G1 X123.061 Y151.151 E27.44553
G1 X120.553 Y150.907 E27.57962
G1 X118.015 Y150.732 E27.71501
G1 X115.507 Y150.631 E27.84858
G1 X113.099 Y150.6 E27.97674
G1 X106.86 Y150.6 E28.30875
G1 X104.236 Y150.637 E28.44841
G1 X101.727 Y150.744 E28.58205
G1 X99.207 Y150.922 E28.71649
G1 X96.692 Y151.171 E28.85098
G1 X94.203 Y151.49 E28.98452
G1 X91.651 Y151.891 E29.12199
G1 X89.21 Y152.345 E29.25412
G1 X86.348 Y152.966 E29.40997
G1 X85.26 Y153.22 E29.46943
G1 X84.895 Y153.299 E29.4893
G1 X84.626 Y153.352 E29.50389
G1 X83.716 Y153.491 E29.55288
G1 X82.795 Y153.55 E29.60199
G1 X82.018 Y153.566 E29.64335
G1 X81.634 Y153.567 E29.66378
G1 X81.378 Y153.563 E29.67741
G1 X80.459 Y153.508 E29.7264
G1 X79.548 Y153.374 E29.7754
G1 X78.75 Y153.221 E29.81864
G1 X78.388 Y153.145 E29.83833
G1 X78.147 Y153.09 E29.85148
G1 X77.259 Y152.847 E29.90048
G1 X76.375 Y152.518 E29.95067
G1 X75.699 Y152.232 E29.98973
G1 X75.427 Y152.113 E30.00553
G1 X75.151 Y151.987 E30.02168
G1 X74.331 Y151.568 E30.07068
G1 X73.48 Y151.032 E30.1242
G1 X72.832 Y150.579 E30.16628
G1 X72.552 Y150.376 E30.18468
G1 X72.361 Y150.233 E30.19738
G1 X71.649 Y149.65 E30.24635
G1 X70.994 Y149.011 E30.29505
G1 X70.438 Y148.42 E30.33823
G1 X70.143 Y148.094 E30.36163
G1 X69.982 Y147.908 E30.37472
G1 X69.411 Y147.187 E30.42366
G1 X68.928 Y146.459 E30.47015
G1 X68.528 Y145.798 E30.51127
G1 X68.346 Y145.485 E30.53054
G1 X68.219 Y145.258 E30.54438
G1 X67.805 Y144.436 E30.59336
G1 X67.456 Y143.557 E30.64369
G1 X67.201 Y142.822 E30.68509
G1 X67.094 Y142.499 E30.7032
G1 X67.014 Y142.242 E30.71752
G1 X66.779 Y141.351 E30.76656
G1 X66.615 Y140.392 E30.81833
G1 X66.52 Y139.624 E30.85951
G1 X66.485 Y139.304 E30.87664
G1 X66.46 Y139.035 E30.89102
G1 X66.415 Y138.115 E30.94004
G1 X66.454 Y137.15 E30.99143
G1 X66.52 Y136.379 E31.03261
G1 X66.553 Y136.048 E31.05032
G1 X66.591 Y135.724 E31.06768
G1 X66.804 Y134.517 E31.1329
G1 X66.989 Y133.735 E31.17566
G1 X67.555 Y131.178 E31.31503
G1 X68.035 Y128.68 E31.4504
G1 X68.436 Y126.202 E31.58398
G1 X68.769 Y123.705 E31.71804
G1 X69.036 Y121.167 E31.85385
G1 X69.225 Y118.684 E31.98637
G1 X69.348 Y116.127 E32.1226
G1 X69.4 Y113.053 E32.28621
G1 X69.4 Y106.95 E32.61099
G1 X69.363 Y104.326 E32.75064
G1 X69.256 Y101.817 E32.88428
G1 X69.078 Y99.297 E33.01872
G1 X68.829 Y96.783 E33.15316
G1 X68.51 Y94.294 E33.2867
G1 X68.109 Y91.742 E33.42417
G1 X67.653 Y89.288 E33.557
G1 X67.124 Y86.828 E33.6909
G1 X66.835 Y85.622 E33.7569
G1 X66.624 Y84.461 E33.8197
G1 X66.52 Y83.626 E33.86448
G1 X66.483 Y83.283 E33.88283
G1 X66.459 Y83.021 E33.89684
G1 X66.415 Y82.101 E33.94585
G1 X66.454 Y81.15 E33.9965
G1 X66.52 Y80.379 E34.03768
G1 X66.553 Y80.051 E34.05522
G1 X66.584 Y79.786 E34.06942
G1 X66.73 Y78.877 E34.11842
G1 X66.968 Y77.943 E34.16971
G1 X67.199 Y77.181 E34.21208
G1 X67.314 Y76.825 E34.23199
G1 X67.392 Y76.597 E34.24481
G1 X67.727 Y75.74 E34.29378
G1 X68.136 Y74.914 E34.34283
G1 X68.516 Y74.224 E34.38475
G1 X68.708 Y73.89 E34.40525
G1 X68.844 Y73.663 E34.41933
