;FLAVOR:Marlin
;TIME:1049
;Filament used: 0.241685m
;Layer height: 0.12
;MINX:92.386
;MINY:95.047
;MINZ:0.12
;MAXX:123.838
;MAXY:118.65
;MAXZ:11.04
;Generated with Cura_SteamEngine master
M82 ;absolute extrusion mode
START_PRINT T_BED=75.0 T_EXTRUDER=235.0
G92 E0
G92 E0
G1 F1500 E-6.5
;LAYER_COUNT:95
;LAYER:0
M107
G0 F6000 X96.305 Y101.709 Z0.12
;TYPE:SKIRT
G1 F1500 E0
G1 F900 X96.628 Y101.415 E0.00872
G1 X96.852 Y101.213 E0.01474
G1 X97.455 Y100.702 E0.03051
G1 X97.945 Y100.356 E0.04248
G1 X98.161 Y100.216 E0.04762
G1 X98.271 Y100.141 E0.05027
G1 X98.946 Y99.731 E0.06603
G1 X99.658 Y99.39 E0.08179
G1 X100.402 Y99.124 E0.09756
G1 X101.168 Y98.934 E0.11331
G1 X101.95 Y98.823 E0.12907
G1 X102.739 Y98.791 E0.14483
G1 X103.527 Y98.84 E0.16058
G1 X104.307 Y98.967 E0.17635
G1 X105.069 Y99.173 E0.1921
G1 X105.807 Y99.455 E0.20787
G1 X106.413 Y99.76 E0.22141
G1 X106.524 Y99.539 E0.22634
G1 X106.949 Y98.873 E0.24211
G1 X107.439 Y98.254 E0.25787
G1 X107.99 Y97.688 E0.27363
G1 X108.709 Y97.095 E0.29223
G1 X109.465 Y96.544 E0.3109
G1 X110.126 Y96.111 E0.32667
G1 X110.827 Y95.748 E0.34242
G1 X111.561 Y95.458 E0.35817
G1 X112.321 Y95.243 E0.37393
G1 X113.099 Y95.106 E0.3897
G1 X114.059 Y95.047 E0.40889
G1 X114.993 Y95.047 E0.42753
G1 X115.782 Y95.087 E0.44329
G1 X116.562 Y95.206 E0.45904
G1 X117.327 Y95.404 E0.47481
G1 X118.067 Y95.678 E0.49056
G1 X118.776 Y96.026 E0.50632
G1 X119.587 Y96.544 E0.52552
G1 X120.343 Y97.095 E0.54419
G1 X120.957 Y97.591 E0.55994
G1 X121.517 Y98.148 E0.5757
G1 X122.019 Y98.758 E0.59147
G1 X122.456 Y99.416 E0.60723
G1 X122.824 Y100.114 E0.62298
G1 X123.165 Y100.982 E0.64159
G1 X123.454 Y101.869 E0.66021
G1 X123.661 Y102.631 E0.67596
G1 X123.789 Y103.41 E0.69172
G1 X123.838 Y104.198 E0.70747
G1 X123.806 Y104.987 E0.72323
G1 X123.695 Y105.769 E0.739
G1 X123.454 Y106.701 E0.75821
G1 X123.165 Y107.588 E0.77682
G1 X122.883 Y108.326 E0.79259
G1 X122.528 Y109.031 E0.80834
G1 X122.103 Y109.697 E0.82411
G1 X121.613 Y110.316 E0.83986
G1 X121.062 Y110.882 E0.85563
G1 X120.343 Y111.475 E0.87422
G1 X119.587 Y112.026 E0.89289
G1 X118.926 Y112.459 E0.90866
G1 X118.225 Y112.822 E0.92442
G1 X117.491 Y113.112 E0.94017
G1 X116.731 Y113.327 E0.95593
G1 X115.953 Y113.464 E0.97169
G1 X114.993 Y113.523 E0.99089
G1 X114.059 Y113.523 E1.00953
G1 X113.27 Y113.483 E1.02529
G1 X112.49 Y113.364 E1.04104
G1 X111.725 Y113.166 E1.05681
G1 X110.985 Y112.892 E1.07255
G1 X110.276 Y112.544 E1.08831
G1 X109.465 Y112.026 E1.10752
G1 X108.998 Y111.686 E1.11905
G1 X108.832 Y111.907 E1.12456
G1 X108.642 Y112.131 E1.13042
G1 X108.614 Y112.217 E1.13223
G1 X108.351 Y112.846 E1.14583
G1 X108.172 Y113.342 E1.15636
G1 X108.032 Y113.655 E1.1632
G1 X107.674 Y114.358 E1.17894
G1 X107.045 Y115.289 E1.20137
G1 X107.012 Y115.331 E1.20243
G1 X106.494 Y115.926 E1.21817
G1 X105.917 Y116.466 E1.23395
G1 X105.71 Y116.632 E1.23924
G1 X105.451 Y116.868 E1.24623
G1 X104.817 Y117.339 E1.26199
G1 X104.139 Y117.743 E1.27774
G1 X103.423 Y118.077 E1.29351
G1 X102.678 Y118.337 E1.30926
G1 X101.91 Y118.52 E1.32501
G1 X101.127 Y118.625 E1.34078
G1 X100.338 Y118.65 E1.35653
G1 X99.55 Y118.594 E1.3723
G1 X98.772 Y118.46 E1.38805
G1 X98.237 Y118.319 E1.39909
G1 X98.008 Y118.25 E1.40387
G1 X97.264 Y117.985 E1.41963
G1 X96.551 Y117.645 E1.43539
G1 X95.876 Y117.235 E1.45115
G1 X95.246 Y116.759 E1.46691
G1 X94.668 Y116.221 E1.48267
G1 X94.146 Y115.628 E1.49843
G1 X93.688 Y114.986 E1.51417
G1 X93.296 Y114.3 E1.52994
G1 X92.976 Y113.578 E1.5457
G1 X92.731 Y112.827 E1.56146
G1 X92.604 Y112.285 E1.57257
G1 X92.527 Y111.893 E1.58054
G1 X92.414 Y111.112 E1.59629
G1 X92.386 Y110.677 E1.60499
G1 X92.406 Y109.723 E1.62403
G1 X92.425 Y109.493 E1.62864
G1 X92.53 Y108.71 E1.6444
G1 X92.819 Y107.609 E1.66712
G1 X92.921 Y107.311 E1.6734
G1 X92.981 Y107.151 E1.67681
G1 X93.08 Y106.773 E1.68461
G1 X93.089 Y106.746 E1.68518
G1 X93.545 Y105.66 E1.70869
G1 X93.973 Y104.824 E1.72743
G1 X94.021 Y104.722 E1.72968
G1 X94.395 Y104.027 E1.74543
G1 X94.837 Y103.372 E1.7612
G1 X95.089 Y103.055 E1.76928
G1 X95.34 Y102.755 E1.77708
G1 X95.766 Y102.286 E1.78973
G1 X96.305 Y101.709 E1.80549
G0 F6000 X96.598 Y101.983
G1 F900 X96.889 Y101.718 E1.81334
G1 X97.126 Y101.505 E1.8197
G1 X97.713 Y101.008 E1.83505
G1 X98.163 Y100.692 E1.84602
G1 X98.496 Y100.472 E1.85399
G1 X99.154 Y100.073 E1.86934
G1 X99.849 Y99.744 E1.88469
G1 X100.575 Y99.49 E1.90004
G1 X101.323 Y99.312 E1.91538
G1 X102.086 Y99.213 E1.93073
G1 X102.855 Y99.194 E1.94609
G1 X103.622 Y99.254 E1.96144
G1 X104.378 Y99.394 E1.97678
G1 X105.116 Y99.611 E1.99213
G1 X105.827 Y99.904 E2.00748
G1 X106.504 Y100.27 E2.02284
G1 X106.578 Y100.32 E2.02462
G1 X106.892 Y99.702 E2.03845
G1 X107.31 Y99.057 E2.05379
G1 X107.793 Y98.458 E2.06915
G1 X108.336 Y97.913 E2.0845
G1 X108.944 Y97.418 E2.10015
G1 X109.7 Y96.867 E2.11881
G1 X110.345 Y96.447 E2.13417
G1 X111.029 Y96.096 E2.14952
G1 X111.746 Y95.818 E2.16486
G1 X112.488 Y95.616 E2.18021
G1 X113.247 Y95.492 E2.19556
G1 X114.059 Y95.447 E2.21179
G1 X114.993 Y95.447 E2.23043
G1 X115.761 Y95.487 E2.24577
G1 X116.521 Y95.606 E2.26112
G1 X117.264 Y95.804 E2.27647
G1 X117.983 Y96.078 E2.29182
G1 X118.669 Y96.425 E2.30717
G1 X119.352 Y96.867 E2.3234
G1 X120.108 Y97.418 E2.34207
G1 X120.705 Y97.903 E2.35742
G1 X121.248 Y98.447 E2.37276
G1 X121.733 Y99.044 E2.38811
G1 X122.152 Y99.689 E2.40346
G1 X122.503 Y100.374 E2.41882
G1 X122.785 Y101.106 E2.43447
G1 X123.074 Y101.993 E2.45309
G1 X123.274 Y102.735 E2.46842
G1 X123.396 Y103.495 E2.48378
G1 X123.438 Y104.263 E2.49913
G1 X123.4 Y105.031 E2.51448
G1 X123.283 Y105.791 E2.52982
G1 X123.074 Y106.577 E2.54605
G1 X122.785 Y107.464 E2.56467
G1 X122.509 Y108.182 E2.58002
G1 X122.16 Y108.868 E2.59538
G1 X121.742 Y109.513 E2.61072
G1 X121.259 Y110.112 E2.62608
G1 X120.716 Y110.657 E2.64143
G1 X120.108 Y111.152 E2.65707
G1 X119.352 Y111.703 E2.67574
G1 X118.707 Y112.123 E2.6911
G1 X118.023 Y112.474 E2.70645
G1 X117.306 Y112.752 E2.72179
G1 X116.564 Y112.954 E2.73714
G1 X115.805 Y113.078 E2.75249
G1 X114.993 Y113.123 E2.76871
G1 X114.059 Y113.123 E2.78735
G1 X113.291 Y113.083 E2.8027
G1 X112.531 Y112.964 E2.81805
G1 X111.788 Y112.766 E2.8334
G1 X111.069 Y112.492 E2.84875
G1 X110.383 Y112.145 E2.86409
G1 X109.7 Y111.703 E2.88033
G1 X108.944 Y111.152 E2.899
G1 X108.92 Y111.144 E2.8995
G1 X108.527 Y111.648 E2.91226
G1 X108.285 Y111.933 E2.91972
G1 X108.236 Y112.086 E2.92292
G1 X107.98 Y112.698 E2.93616
G1 X107.807 Y113.178 E2.94634
G1 X107.667 Y113.491 E2.95319
G1 X107.317 Y114.176 E2.96854
G1 X106.731 Y115.042 E2.9894
G1 X106.698 Y115.084 E2.99047
G1 X106.192 Y115.663 E3.00582
G1 X105.628 Y116.187 E3.02118
G1 X105.438 Y116.337 E3.02601
G1 X105.181 Y116.572 E3.03296
G1 X104.562 Y117.028 E3.0483
G1 X103.899 Y117.418 E3.06365
G1 X103.199 Y117.736 E3.079
G1 X102.469 Y117.981 E3.09436
G1 X101.718 Y118.148 E3.10972
G1 X100.954 Y118.236 E3.12506
G1 X100.185 Y118.245 E3.14041
G1 X99.419 Y118.174 E3.15576
G1 X98.352 Y117.936 E3.17758
G1 X98.123 Y117.867 E3.18235
G1 X97.399 Y117.607 E3.1977
G1 X96.706 Y117.274 E3.21305
G1 X96.051 Y116.87 E3.2284
G1 X95.442 Y116.401 E3.24374
G1 X94.885 Y115.87 E3.2591
G1 X94.386 Y115.285 E3.27444
G1 X93.95 Y114.651 E3.2898
G1 X93.583 Y113.976 E3.30513
G1 X93.287 Y113.266 E3.32048
G1 X92.997 Y112.208 E3.34238
G1 X92.92 Y111.816 E3.35035
G1 X92.787 Y110.686 E3.37305
G1 X92.786 Y110.661 E3.37355
G1 X92.805 Y109.756 E3.39162
G1 X92.824 Y109.526 E3.39622
G1 X92.927 Y108.764 E3.41157
G1 X93.198 Y107.739 E3.43273
G1 X93.3 Y107.441 E3.43901
G1 X93.361 Y107.276 E3.44252
G1 X93.46 Y106.9 E3.45028
G1 X93.469 Y106.873 E3.45085
G1 X93.901 Y105.842 E3.47316
G1 X94.346 Y104.973 E3.49264
G1 X94.383 Y104.894 E3.49438
G1 X94.747 Y104.216 E3.50974
G1 X95.395 Y103.311 E3.53195
G1 X95.646 Y103.011 E3.53976
G1 X96.071 Y102.544 E3.55236
G1 X96.598 Y101.983 E3.56772
G0 F6000 X97.15 Y102.021
G1 F900 X97.4 Y101.796 E3.57443
G1 X97.972 Y101.314 E3.58936
G1 X98.381 Y101.027 E3.59933
G1 X98.614 Y100.876 E3.60487
G1 X98.721 Y100.803 E3.60745
G1 X99.361 Y100.416 E3.62238
G1 X100.039 Y100.099 E3.63732
G1 X100.747 Y99.857 E3.65225
G1 X101.476 Y99.691 E3.66717
G1 X102.219 Y99.605 E3.68209
G1 X102.967 Y99.598 E3.69702
G1 X103.712 Y99.671 E3.71196
G1 X104.444 Y99.823 E3.72688
G1 X105.156 Y100.052 E3.74181
G1 X105.84 Y100.356 E3.75674
G1 X106.487 Y100.732 E3.77168
G1 X106.762 Y100.933 E3.77847
G1 X106.917 Y100.532 E3.78705
G1 X107.259 Y99.866 E3.80199
G1 X107.671 Y99.242 E3.81692
G1 X108.146 Y98.664 E3.83185
G1 X108.681 Y98.141 E3.84678
G1 X109.18 Y97.741 E3.85954
G1 X109.936 Y97.19 E3.87821
G1 X110.563 Y96.782 E3.89314
G1 X111.23 Y96.444 E3.90806
G1 X111.93 Y96.179 E3.92299
G1 X112.654 Y95.99 E3.93793
G1 X113.393 Y95.879 E3.95284
G1 X114.059 Y95.847 E3.96615
G1 X114.993 Y95.847 E3.98479
G1 X115.74 Y95.887 E3.99971
G1 X116.478 Y96.006 E4.01463
G1 X117.2 Y96.204 E4.02957
G1 X117.896 Y96.477 E4.04449
G1 X118.559 Y96.824 E4.05942
G1 X119.116 Y97.19 E4.07273
G1 X119.872 Y97.741 E4.09139
G1 X120.452 Y98.213 E4.10632
G1 X120.979 Y98.745 E4.12126
G1 X121.445 Y99.329 E4.13617
G1 X121.847 Y99.961 E4.15112
G1 X122.179 Y100.631 E4.16604
G1 X122.405 Y101.229 E4.1788
G1 X122.694 Y102.116 E4.19741
G1 X122.887 Y102.839 E4.21235
G1 X123.002 Y103.578 E4.22727
G1 X123.038 Y104.325 E4.2422
G1 X122.994 Y105.072 E4.25713
G1 X122.87 Y105.81 E4.27206
G1 X122.694 Y106.454 E4.28539
G1 X122.405 Y107.341 E4.304
G1 X122.135 Y108.038 E4.31892
G1 X121.793 Y108.704 E4.33386
G1 X121.381 Y109.328 E4.34878
G1 X120.906 Y109.906 E4.36371
G1 X120.371 Y110.429 E4.37864
G1 X119.872 Y110.829 E4.39141
G1 X119.116 Y111.38 E4.41008
G1 X118.489 Y111.788 E4.425
G1 X117.822 Y112.126 E4.43993
G1 X117.122 Y112.391 E4.45486
G1 X116.398 Y112.58 E4.4698
G1 X115.659 Y112.691 E4.48471
G1 X114.993 Y112.723 E4.49801
G1 X114.059 Y112.723 E4.51665
G1 X113.312 Y112.683 E4.53158
G1 X112.574 Y112.564 E4.5465
G1 X111.852 Y112.366 E4.56144
G1 X111.156 Y112.093 E4.57636
G1 X110.493 Y111.746 E4.59129
G1 X109.936 Y111.38 E4.60459
G1 X109.18 Y110.829 E4.62326
G1 X108.834 Y110.547 E4.63217
G1 X108.223 Y111.389 E4.65293
G1 X107.943 Y111.718 E4.66155
G1 X107.858 Y111.956 E4.6666
G1 X107.612 Y112.543 E4.6793
G1 X107.442 Y113.015 E4.68931
G1 X107.302 Y113.328 E4.69615
G1 X106.96 Y113.994 E4.71109
G1 X106.416 Y114.795 E4.73041
G1 X106.383 Y114.837 E4.73148
G1 X105.89 Y115.399 E4.7464
G1 X105.465 Y115.772 E4.75768
G1 X104.911 Y116.275 E4.77262
G1 X104.307 Y116.717 E4.78755
G1 X103.659 Y117.091 E4.80248
G1 X102.975 Y117.394 E4.81741
G1 X102.263 Y117.622 E4.83233
G1 X101.53 Y117.773 E4.84727
G1 X100.786 Y117.845 E4.86218
G1 X100.038 Y117.837 E4.87711
G1 X99.295 Y117.749 E4.89204
G1 X98.468 Y117.553 E4.909
G1 X98.239 Y117.484 E4.91378
G1 X97.535 Y117.231 E4.92871
G1 X96.862 Y116.903 E4.94365
G1 X96.228 Y116.506 E4.95857
G1 X95.641 Y116.043 E4.97349
G1 X95.106 Y115.52 E4.98842
G1 X94.629 Y114.943 E5.00336
G1 X94.217 Y114.319 E5.01829
G1 X93.874 Y113.654 E5.03322
G1 X93.604 Y112.957 E5.04813
G1 X93.389 Y112.131 E5.06517
G1 X93.312 Y111.739 E5.07314
G1 X93.187 Y110.67 E5.09462
G1 X93.186 Y110.645 E5.09512
G1 X93.204 Y109.789 E5.1122
G1 X93.223 Y109.559 E5.11681
G1 X93.324 Y108.818 E5.13173
G1 X93.576 Y107.868 E5.15135
G1 X93.678 Y107.57 E5.15763
G1 X93.74 Y107.404 E5.16117
G1 X93.839 Y107.026 E5.16897
G1 X93.848 Y106.999 E5.16954
G1 X94.257 Y106.025 E5.19062
G1 X94.692 Y105.174 E5.20969
G1 X94.744 Y105.065 E5.2121
G1 X95.1 Y104.407 E5.22703
G1 X95.702 Y103.568 E5.24764
G1 X95.953 Y103.268 E5.25544
G1 X96.377 Y102.802 E5.26801
G1 X97.15 Y102.021 E5.28994
G0 F6000 X97.411 Y102.324
G1 F900 X97.674 Y102.088 E5.297
G1 X98.23 Y101.621 E5.31149
G1 X98.599 Y101.363 E5.32047
G1 X98.946 Y101.133 E5.32878
G1 X99.568 Y100.759 E5.34326
G1 X100.228 Y100.454 E5.35777
G1 X100.917 Y100.225 E5.37226
G1 X101.627 Y100.072 E5.38676
G1 X102.349 Y99.998 E5.40124
G1 X103.076 Y100.004 E5.41575
G1 X103.797 Y100.09 E5.43024
G1 X104.504 Y100.255 E5.44473
G1 X105.19 Y100.496 E5.45924
G1 X105.844 Y100.811 E5.47372
G1 X106.46 Y101.197 E5.48823
G1 X106.952 Y101.586 E5.50075
G1 X107.028 Y101.353 E5.50564
G1 X107.29 Y100.676 E5.52012
G1 X107.626 Y100.032 E5.53462
G1 X108.03 Y99.428 E5.54912
G1 X108.498 Y98.873 E5.56361
G1 X109.025 Y98.373 E5.57811
G1 X109.416 Y98.064 E5.58805
G1 X110.172 Y97.513 E5.60672
G1 X110.781 Y97.118 E5.62121
G1 X111.431 Y96.793 E5.63571
G1 X112.112 Y96.541 E5.6502
G1 X112.817 Y96.365 E5.6647
G1 X113.536 Y96.268 E5.67918
G1 X114.059 Y96.247 E5.68962
G1 X114.993 Y96.247 E5.70826
G1 X115.718 Y96.287 E5.72275
G1 X116.435 Y96.406 E5.73726
G1 X117.134 Y96.604 E5.75175
G1 X117.807 Y96.877 E5.76625
G1 X118.446 Y97.222 E5.78074
G1 X118.88 Y97.513 E5.79117
G1 X119.636 Y98.064 E5.80984
G1 X120.199 Y98.524 E5.82434
G1 X120.708 Y99.042 E5.83884
G1 X121.156 Y99.614 E5.85334
G1 X121.539 Y100.231 E5.86783
G1 X121.852 Y100.886 E5.88232
G1 X122.024 Y101.353 E5.89225
G1 X122.313 Y102.24 E5.91086
G1 X122.5 Y102.942 E5.92536
G1 X122.608 Y103.661 E5.93987
G1 X122.637 Y104.386 E5.95435
G1 X122.586 Y105.111 E5.96885
G1 X122.456 Y105.825 E5.98334
G1 X122.313 Y106.33 E5.99381
G1 X122.024 Y107.217 E6.01243
G1 X121.762 Y107.894 E6.02692
G1 X121.426 Y108.538 E6.04141
G1 X121.022 Y109.142 E6.05591
G1 X120.554 Y109.697 E6.0704
G1 X120.027 Y110.197 E6.0849
G1 X119.636 Y110.506 E6.09484
G1 X118.88 Y111.057 E6.11351
G1 X118.271 Y111.452 E6.128
G1 X117.621 Y111.777 E6.1425
G1 X116.94 Y112.029 E6.15699
G1 X116.235 Y112.205 E6.17149
G1 X115.516 Y112.302 E6.18597
G1 X114.993 Y112.323 E6.19641
G1 X114.059 Y112.323 E6.21505
G1 X113.334 Y112.283 E6.22954
G1 X112.617 Y112.164 E6.24405
G1 X111.918 Y111.966 E6.25855
G1 X111.245 Y111.693 E6.27304
G1 X110.606 Y111.348 E6.28753
G1 X110.172 Y111.057 E6.29796
G1 X109.416 Y110.506 E6.31663
G1 X108.853 Y110.046 E6.33114
G1 X108.732 Y109.923 E6.33458
G1 X108.382 Y110.515 E6.3483
G1 X107.918 Y111.13 E6.36368
G1 X107.638 Y111.459 E6.3723
G1 X107.575 Y111.526 E6.37413
G1 X107.479 Y111.826 E6.38042
G1 X107.245 Y112.386 E6.39253
G1 X107.077 Y112.852 E6.40242
G1 X106.937 Y113.165 E6.40926
G1 X106.604 Y113.811 E6.42376
G1 X106.102 Y114.548 E6.44156
G1 X106.069 Y114.59 E6.44263
G1 X105.589 Y115.135 E6.45712
G1 X105.126 Y115.54 E6.46939
G1 X104.642 Y115.979 E6.48243
G1 X104.054 Y116.404 E6.49691
G1 X103.422 Y116.763 E6.51142
G1 X102.754 Y117.049 E6.52592
G1 X102.059 Y117.261 E6.54042
G1 X101.346 Y117.395 E6.5549
G1 X100.621 Y117.45 E6.56941
G1 X99.895 Y117.424 E6.5839
G1 X99.177 Y117.32 E6.59838
G1 X98.583 Y117.17 E6.61061
G1 X98.354 Y117.101 E6.61538
G1 X97.671 Y116.854 E6.62987
G1 X97.019 Y116.533 E6.64438
G1 X96.407 Y116.142 E6.65887
G1 X95.841 Y115.686 E6.67338
G1 X95.329 Y115.171 E6.68787
G1 X94.877 Y114.603 E6.70235
G1 X94.489 Y113.989 E6.71685
G1 X94.172 Y113.335 E6.73135
G1 X93.928 Y112.651 E6.74584
G1 X93.782 Y112.054 E6.75811
G1 X93.705 Y111.662 E6.76608
G1 X93.586 Y110.654 E6.78634
G1 X93.585 Y110.629 E6.78684
G1 X93.602 Y109.822 E6.80294
G1 X93.621 Y109.592 E6.80755
G1 X93.721 Y108.872 E6.82206
G1 X93.955 Y107.998 E6.84011
G1 X94.057 Y107.7 E6.8464
G1 X94.119 Y107.532 E6.84997
G1 X94.219 Y107.153 E6.85779
G1 X94.228 Y107.126 E6.85836
G1 X94.613 Y106.207 E6.87825
G1 X95.059 Y105.335 E6.89779
G1 X95.106 Y105.236 E6.89998
G1 X95.452 Y104.597 E6.91448
G1 X96.009 Y103.825 E6.93348
G1 X96.26 Y103.525 E6.94128
G1 X96.632 Y103.116 E6.95232
G1 X96.682 Y103.061 E6.9538
G1 X97.411 Y102.324 E6.97449
G0 F6000 X97.673 Y102.627
G1 F900 X97.948 Y102.38 E6.98186
G1 X98.487 Y101.928 E6.9959
G1 X98.817 Y101.698 E7.00393
G1 X99.034 Y101.557 E7.00909
G1 X99.171 Y101.464 E7.0124
G1 X99.774 Y101.102 E7.02643
G1 X100.415 Y100.81 E7.04049
G1 X101.085 Y100.594 E7.05454
G1 X101.775 Y100.454 E7.06859
G1 X102.476 Y100.394 E7.08263
G1 X103.18 Y100.413 E7.09668
G1 X103.877 Y100.512 E7.11073
G1 X104.558 Y100.69 E7.12478
G1 X105.215 Y100.943 E7.13883
G1 X105.839 Y101.27 E7.15289
G1 X106.422 Y101.665 E7.16694
G1 X106.956 Y102.123 E7.18098
G1 X107.137 Y102.31 E7.18617
G1 X107.408 Y101.477 E7.20365
G1 X107.664 Y100.821 E7.21771
G1 X107.992 Y100.199 E7.23174
G1 X108.389 Y99.617 E7.2458
G1 X108.849 Y99.085 E7.25983
G1 X109.367 Y98.608 E7.27389
G1 X109.651 Y98.388 E7.28105
