;FLAVOR:Marlin
;TIME:1720
;Filament used: 1.73029m
;Layer height: 0.28
;MINX:89
;MINY:89
;MINZ:0.28
;MAXX:131
;MAXY:131
;MAXZ:19.88
;Generated with Cura_SteamEngine master
M82 ;absolute extrusion mode
START_PRINT T_BED=75.0 T_EXTRUDER=235.0
G92 E0
G92 E0
G1 F1500 E-6.5
;LAYER_COUNT:71
;LAYER:0
M107
G0 F6000 X92.198 Y92.264 Z0.28
;TYPE:SKIRT
G1 F1500 E0
G1 F900 X92.886 Y91.627 E0.04366
G1 X93.626 Y91.051 E0.08732
G1 X94.412 Y90.539 E0.131
G1 X95.239 Y90.097 E0.17467
G1 X96.101 Y89.727 E0.21835
G1 X96.991 Y89.431 E0.26202
G1 X97.903 Y89.213 E0.30568
G1 X98.83 Y89.072 E0.34935
G1 X99.701 Y89.013 E0.39
G1 X100.022 Y89.004 E0.40495
G1 X100.33 Y89 E0.41929
G1 X119.293 Y89 E1.30229
G1 X120.149 Y89.011 E1.34215
G1 X121.085 Y89.065 E1.38581
G1 X122.013 Y89.197 E1.42945
G1 X122.927 Y89.409 E1.47314
G1 X123.819 Y89.698 E1.5168
G1 X124.684 Y90.061 E1.56049
G1 X125.514 Y90.497 E1.60414
G1 X126.305 Y91.002 E1.64784
G1 X127.049 Y91.573 E1.69151
G1 X127.742 Y92.205 E1.73518
G1 X128.379 Y92.893 E1.77884
G1 X128.954 Y93.634 E1.82252
G1 X129.465 Y94.42 E1.86617
G1 X129.907 Y95.248 E1.90988
G1 X130.276 Y96.11 E1.95354
G1 X130.571 Y97 E1.9972
G1 X130.789 Y97.912 E2.04086
G1 X130.929 Y98.84 E2.08456
G1 X130.987 Y99.701 E2.12474
G1 X130.996 Y100.021 E2.13965
G1 X131 Y100.33 E2.15404
G1 X130.999 Y119.4 E3.04202
G1 X130.99 Y120.127 E3.07587
G1 X130.939 Y121.064 E3.11957
G1 X130.807 Y121.992 E3.16321
G1 X130.598 Y122.906 E3.20687
G1 X130.311 Y123.799 E3.25055
G1 X129.949 Y124.665 E3.29425
G1 X129.515 Y125.496 E3.33791
G1 X129.011 Y126.287 E3.38158
G1 X128.442 Y127.032 E3.42523
G1 X127.811 Y127.727 E3.46894
G1 X127.124 Y128.365 E3.5126
G1 X126.385 Y128.942 E3.55626
G1 X125.599 Y129.454 E3.59994
G1 X124.773 Y129.897 E3.64358
G1 X123.911 Y130.269 E3.6873
G1 X123.022 Y130.565 E3.73093
G1 X122.11 Y130.785 E3.77461
G1 X121.183 Y130.926 E3.81827
G1 X120.299 Y130.987 E3.85953
G1 X119.978 Y130.996 E3.87449
G1 X119.67 Y131 E3.88883
G1 X100.565 Y130.999 E4.77844
G1 X99.867 Y130.99 E4.81094
G1 X98.931 Y130.938 E4.8546
G1 X98.002 Y130.806 E4.89829
G1 X97.088 Y130.596 E4.94196
G1 X96.195 Y130.309 E4.98563
G1 X95.33 Y129.946 E5.02931
G1 X94.499 Y129.512 E5.07297
G1 X93.708 Y129.008 E5.11664
G1 X92.963 Y128.438 E5.16032
G1 X92.269 Y127.807 E5.204
G1 X91.632 Y127.12 E5.24762
G1 X91.055 Y126.38 E5.29132
G1 X90.543 Y125.594 E5.335
G1 X90.1 Y124.767 E5.37868
G1 X89.729 Y123.906 E5.42234
G1 X89.433 Y123.016 E5.46601
G1 X89.214 Y122.104 E5.50968
G1 X89.073 Y121.177 E5.55335
G1 X89.013 Y120.288 E5.59484
G1 X89.004 Y119.955 E5.61035
G1 X89 Y119.658 E5.62418
G1 X89.001 Y100.525 E6.51509
G1 X89.01 Y99.86 E6.54606
G1 X89.063 Y98.924 E6.58971
G1 X89.195 Y97.995 E6.63341
G1 X89.406 Y97.081 E6.67708
G1 X89.694 Y96.189 E6.72073
G1 X90.057 Y95.324 E6.76441
G1 X90.492 Y94.493 E6.80809
G1 X90.996 Y93.703 E6.85172
G1 X91.566 Y92.958 E6.8954
G1 X92.198 Y92.264 E6.93911
G0 F6000 X92.589 Y92.439
G1 F900 X93.274 Y91.823 E6.98201
G1 X94.01 Y91.27 E7.02487
G1 X94.791 Y90.782 E7.06775
G1 X95.611 Y90.364 E7.11061
G1 X96.465 Y90.019 E7.1535
G1 X97.345 Y89.749 E7.19636
G1 X98.245 Y89.557 E7.23921
G1 X99.159 Y89.443 E7.2821
G1 X99.712 Y89.413 E7.30789
G1 X100.033 Y89.404 E7.32284
G1 X100.33 Y89.4 E7.33667
G1 X119.293 Y89.4 E8.21967
G1 X120.143 Y89.411 E8.25925
G1 X121.062 Y89.464 E8.30212
G1 X121.973 Y89.597 E8.34499
G1 X122.869 Y89.808 E8.38785
G1 X123.743 Y90.096 E8.4307
G1 X124.59 Y90.459 E8.47361
G1 X125.401 Y90.894 E8.51646
G1 X126.171 Y91.398 E8.55931
G1 X126.895 Y91.967 E8.60219
G1 X127.567 Y92.597 E8.64508
G1 X128.182 Y93.282 E8.68795
G1 X128.735 Y94.018 E8.73082
G1 X129.222 Y94.799 E8.77367
G1 X129.639 Y95.62 E8.81655
G1 X129.984 Y96.474 E8.85944
G1 X130.253 Y97.354 E8.90229
G1 X130.445 Y98.255 E8.94518
G1 X130.558 Y99.168 E8.98802
G1 X130.587 Y99.712 E9.01339
G1 X130.596 Y100.032 E9.02829
G1 X130.6 Y100.33 E9.04217
G1 X130.599 Y119.395 E9.92992
G1 X130.59 Y120.122 E9.96377
G1 X130.539 Y121.041 E10.00663
G1 X130.408 Y121.953 E10.04953
G1 X130.198 Y122.849 E10.09239
G1 X129.912 Y123.724 E10.13525
G1 X129.551 Y124.571 E10.17812
G1 X129.117 Y125.383 E10.22099
G1 X128.615 Y126.155 E10.26387
G1 X128.047 Y126.88 E10.30676
G1 X127.419 Y127.553 E10.34962
G1 X126.735 Y128.169 E10.39248
G1 X126 Y128.723 E10.43534
G1 X125.22 Y129.212 E10.47821
G1 X124.4 Y129.631 E10.52109
G1 X123.547 Y129.977 E10.56395
G1 X122.667 Y130.248 E10.60683
G1 X121.767 Y130.441 E10.64969
G1 X120.853 Y130.556 E10.69258
G1 X120.288 Y130.587 E10.71893
G1 X119.967 Y130.596 E10.73388
G1 X119.67 Y130.6 E10.74771
G1 X100.57 Y130.599 E11.63709
G1 X99.872 Y130.59 E11.66959
G1 X98.953 Y130.538 E11.71246
G1 X98.042 Y130.407 E11.75531
G1 X97.146 Y130.197 E11.79816
G1 X96.271 Y129.91 E11.84104
G1 X95.424 Y129.548 E11.88393
G1 X94.612 Y129.114 E11.92681
G1 X93.841 Y128.612 E11.96965
G1 X93.116 Y128.044 E12.01253
G1 X92.443 Y127.415 E12.05543
G1 X91.828 Y126.731 E12.09826
G1 X91.274 Y125.996 E12.14111
G1 X90.786 Y125.215 E12.184
G1 X90.367 Y124.395 E12.22688
G1 X90.021 Y123.542 E12.26974
G1 X89.751 Y122.662 E12.3126
G1 X89.558 Y121.761 E12.35551
G1 X89.444 Y120.848 E12.39835
G1 X89.413 Y120.277 E12.42498
G1 X89.404 Y119.944 E12.44049
G1 X89.4 Y119.658 E12.45381
G1 X89.401 Y100.531 E13.34444
G1 X89.41 Y99.866 E13.37541
G1 X89.462 Y98.946 E13.41832
G1 X89.594 Y98.035 E13.46118
G1 X89.805 Y97.139 E13.50404
G1 X90.092 Y96.264 E13.54692
G1 X90.455 Y95.418 E13.58979
G1 X90.889 Y94.606 E13.63266
G1 X91.392 Y93.835 E13.67552
G1 X91.961 Y93.111 E13.7184
G1 X92.589 Y92.439 E13.76123
G0 F6000 X92.981 Y92.617
G1 F900 X93.662 Y92.024 E13.80328
G1 X94.394 Y91.494 E13.84536
G1 X95.169 Y91.031 E13.8874
G1 X95.982 Y90.638 E13.92944
G1 X96.827 Y90.318 E13.97152
G1 X97.696 Y90.075 E14.01353
G1 X98.584 Y89.909 E14.0556
G1 X99.723 Y89.813 E14.10882
G1 X100.044 Y89.804 E14.12378
G1 X100.33 Y89.8 E14.1371
G1 X119.293 Y89.8 E15.02009
G1 X120.137 Y89.811 E15.0594
G1 X121.039 Y89.864 E15.10147
G1 X121.932 Y89.996 E15.1435
G1 X122.81 Y90.207 E15.18555
G1 X123.666 Y90.495 E15.2276
G1 X124.493 Y90.857 E15.26964
G1 X125.285 Y91.292 E15.31172
G1 X126.036 Y91.794 E15.35378
G1 X126.739 Y92.361 E15.39583
G1 X127.389 Y92.988 E15.43789
G1 X127.981 Y93.67 E15.47994
G1 X128.511 Y94.401 E15.52198
G1 X128.973 Y95.177 E15.56404
G1 X129.366 Y95.99 E15.60608
G1 X129.684 Y96.835 E15.64812
G1 X129.927 Y97.705 E15.69019
G1 X130.092 Y98.593 E15.73224
G1 X130.187 Y99.723 E15.78505
G1 X130.196 Y100.043 E15.79995
G1 X130.2 Y100.33 E15.81332
G1 X130.199 Y119.39 E16.70083
G1 X130.19 Y120.117 E16.73469
G1 X130.139 Y121.019 E16.77675
G1 X130.008 Y121.913 E16.81883
G1 X129.799 Y122.791 E16.86085
G1 X129.513 Y123.648 E16.90292
G1 X129.152 Y124.476 E16.94498
G1 X128.72 Y125.268 E16.98699
G1 X128.219 Y126.02 E17.02906
G1 X127.653 Y126.724 E17.07113
G1 X127.028 Y127.375 E17.11315
G1 X126.347 Y127.969 E17.15523
G1 X125.616 Y128.5 E17.1973
G1 X124.842 Y128.964 E17.23932
G1 X124.029 Y129.358 E17.28139
G1 X123.185 Y129.678 E17.32342
G1 X122.315 Y129.923 E17.3655
G1 X121.428 Y130.089 E17.40752
G1 X120.277 Y130.187 E17.46131
G1 X119.956 Y130.196 E17.47627
G1 X119.67 Y130.2 E17.48958
G1 X100.575 Y130.199 E18.37873
G1 X99.877 Y130.19 E18.41123
G1 X98.976 Y130.139 E18.45325
G1 X98.082 Y130.007 E18.49533
G1 X97.204 Y129.798 E18.53736
G1 X96.347 Y129.511 E18.57944
G1 X95.52 Y129.15 E18.62146
G1 X94.727 Y128.717 E18.66353
G1 X93.976 Y128.216 E18.70557
G1 X93.272 Y127.65 E18.74763
G1 X92.621 Y127.024 E18.78968
G1 X92.028 Y126.343 E18.83173
G1 X91.498 Y125.612 E18.87378
G1 X91.034 Y124.837 E18.91584
G1 X90.64 Y124.024 E18.9579
G1 X90.32 Y123.18 E18.99993
G1 X90.076 Y122.31 E19.04201
G1 X89.91 Y121.422 E19.08407
G1 X89.813 Y120.267 E19.13804
G1 X89.804 Y119.934 E19.15356
G1 X89.8 Y119.658 E19.16641
G1 X89.801 Y100.536 E20.05681
G1 X89.81 Y99.871 E20.08778
G1 X89.862 Y98.969 E20.12985
G1 X89.994 Y98.076 E20.17188
G1 X90.204 Y97.198 E20.21392
G1 X90.491 Y96.341 E20.256
G1 X90.853 Y95.514 E20.29804
G1 X91.286 Y94.722 E20.34007
G1 X91.788 Y93.971 E20.38213
G1 X92.355 Y93.267 E20.42422
G1 X92.981 Y92.617 E20.46624
G1 F1500 E13.96624
;MESH:CalibrationCube
G0 F6000 X100.414 Y99.335
G0 X100.414 Y100.414
G0 X118.418 Y101.582
G0 X118.6 Y118.6
;TYPE:WALL-INNER
G1 F1500 E20.46624
G1 F900 X101.4 Y118.6 E21.26715
G1 X101.4 Y101.4 E22.06805
G1 X118.6 Y101.4 E22.86896
G1 X118.6 Y118.6 E23.66986
G0 F6000 X119 Y119
G1 F900 X101 Y119 E24.50802
G1 X101 Y101 E25.34617
G1 X119 Y101 E26.18433
G1 X119 Y119 E27.02248
G0 F6000 X119.4 Y119.4
G1 F900 X100.6 Y119.4 E27.89789
G1 X100.6 Y100.6 E28.7733
G1 X119.4 Y100.6 E29.6487
G1 X119.4 Y119.4 E30.52411
G0 F6000 X119.8 Y119.8
;TYPE:WALL-OUTER
G1 F900 X100.2 Y119.8 E31.43677
G1 X100.2 Y100.2 E32.34942
G1 X119.8 Y100.2 E33.26208
G1 X119.8 Y119.8 E34.17474
G0 F6000 X119.53 Y119.53
G0 X118.49 Y118.21
G0 X118.21 Y118.21
;TYPE:SKIN
G1 F900 X101.79 Y118.21 E34.93933
G1 X101.79 Y101.79 E35.70391
G1 X118.21 Y101.79 E36.46849
G1 X118.21 Y118.21 E37.23308
G0 F6000 X118.49 Y118.21
G0 X118.49 Y102.21
G0 X118.049 Y102.21
G1 F900 X117.789 Y101.949 E37.25023
G0 F6000 X117.223 Y101.949
G1 F900 X118.049 Y102.775 E37.30462
G0 F6000 X118.049 Y103.341
G1 F900 X116.657 Y101.949 E37.39629
G0 F6000 X116.092 Y101.949
G1 F900 X118.049 Y103.907 E37.5252
G0 F6000 X118.049 Y104.472
G1 F900 X115.526 Y101.949 E37.69134
G0 F6000 X114.96 Y101.949
G1 F900 X118.049 Y105.038 E37.89475
G0 F6000 X118.049 Y105.604
G1 F900 X114.395 Y101.949 E38.13541
G0 F6000 X113.829 Y101.949
G1 F900 X118.049 Y106.169 E38.4133
G0 F6000 X118.049 Y106.735
G1 F900 X113.263 Y101.949 E38.72847
G0 F6000 X112.697 Y101.949
G1 F900 X118.049 Y107.301 E39.08091
G0 F6000 X118.049 Y107.867
G1 F900 X112.132 Y101.949 E39.47059
G0 F6000 X111.566 Y101.949
G1 F900 X118.049 Y108.432 E39.8975
G0 F6000 X118.049 Y108.998
G1 F900 X111 Y101.949 E40.36169
G0 F6000 X110.435 Y101.949
G1 F900 X118.049 Y109.564 E40.86312
G0 F6000 X118.049 Y110.129
G1 F900 X109.869 Y101.949 E41.40179
G0 F6000 X109.303 Y101.949
G1 F900 X118.049 Y110.695 E41.97773
G0 F6000 X118.049 Y111.261
G1 F900 X108.738 Y101.949 E42.5909
G0 F6000 X108.172 Y101.949
G1 F900 X118.049 Y111.826 E43.24132
G0 F6000 X118.049 Y112.392
G1 F900 X107.606 Y101.949 E43.92901
G0 F6000 X107.041 Y101.949
G1 F900 X118.049 Y112.958 E44.65394
G0 F6000 X118.049 Y113.523
G1 F900 X106.475 Y101.949 E45.41611
G0 F6000 X105.909 Y101.949
G1 F900 X118.049 Y114.089 E46.21555
G0 F6000 X118.049 Y114.655
G1 F900 X105.344 Y101.949 E47.05223
G0 F6000 X104.778 Y101.949
G1 F900 X118.049 Y115.22 E47.92614
G0 F6000 X118.049 Y115.786
G1 F900 X104.212 Y101.949 E48.83733
G0 F6000 X103.647 Y101.949
G1 F900 X118.049 Y116.352 E49.78576
G0 F6000 X118.049 Y116.917
G1 F900 X103.081 Y101.949 E50.77143
G0 F6000 X102.515 Y101.949
G1 F900 X118.049 Y117.483 E51.79437
G0 F6000 X118.049 Y118.049
G1 F900 X101.949 Y101.949 E52.85458
G0 F6000 X101.949 Y102.515
G1 F900 X117.483 Y118.049 E53.87752
G0 F6000 X116.917 Y118.049
G1 F900 X101.949 Y103.081 E54.86319
G0 F6000 X101.949 Y103.647
G1 F900 X116.352 Y118.049 E55.81162
G0 F6000 X115.786 Y118.049
G1 F900 X101.949 Y104.212 E56.72281
G0 F6000 X101.949 Y104.778
G1 F900 X115.22 Y118.049 E57.59673
G0 F6000 X114.655 Y118.049
G1 F900 X101.949 Y105.344 E58.43341
G0 F6000 X101.949 Y105.909
G1 F900 X114.089 Y118.049 E59.23285
G0 F6000 X113.523 Y118.049
G1 F900 X101.949 Y106.475 E59.99502
G0 F6000 X101.949 Y107.041
G1 F900 X112.958 Y118.049 E60.71994
G0 F6000 X112.392 Y118.049
G1 F900 X101.949 Y107.606 E61.40763
G0 F6000 X101.949 Y108.172
G1 F900 X111.826 Y118.049 E62.05805
G0 F6000 X111.261 Y118.049
G1 F900 X101.949 Y108.738 E62.67123
G0 F6000 X101.949 Y109.303
G1 F900 X110.695 Y118.049 E63.24717
G0 F6000 X110.129 Y118.049
G1 F900 X101.949 Y109.869 E63.78584
G0 F6000 X101.949 Y110.435
G1 F900 X109.564 Y118.049 E64.28726
G0 F6000 X108.998 Y118.049
G1 F900 X101.949 Y111 E64.75145
G0 F6000 X101.949 Y111.566
G1 F900 X108.432 Y118.049 E65.17837
G0 F6000 X107.867 Y118.049
G1 F900 X101.949 Y112.132 E65.56805
G0 F6000 X101.949 Y112.697
G1 F900 X107.301 Y118.049 E65.92048
G0 F6000 X106.735 Y118.049
G1 F900 X101.949 Y113.263 E66.23565
G0 F6000 X101.949 Y113.829
G1 F900 X106.169 Y118.049 E66.51354
G0 F6000 X105.604 Y118.049
G1 F900 X101.949 Y114.395 E66.7542
G0 F6000 X101.949 Y114.96
G1 F900 X105.038 Y118.049 E66.95762
G0 F6000 X104.472 Y118.049
G1 F900 X101.949 Y115.526 E67.12376
G0 F6000 X101.949 Y116.092
G1 F900 X103.907 Y118.049 E67.25266
G0 F6000 X103.341 Y118.049
G1 F900 X101.949 Y116.657 E67.34433
G0 F6000 X101.949 Y117.223
G1 F900 X102.775 Y118.049 E67.39872
G0 F6000 X102.21 Y118.049
G1 F900 X101.949 Y117.789 E67.41588
M104 S235
G0 F6000 X101.21 Y117.789
;MESH:NONMESH
G0 F300 X101.21 Y117.789 Z0.56
G0 F6000 X101.582 Y118.418
G0 X118.6 Y118.6
;TIME_ELAPSED:107.724322
;LAYER:1
M106 S42.5
;TYPE:WALL-INNER
;MESH:CalibrationCube
G1 F1200 X101.4 Y118.6 E68.21678
G1 X101.4 Y101.4 E69.01769
G1 X118.6 Y101.4 E69.81859
G1 X118.6 Y118.6 E70.61949
G0 F7500 X119 Y119
G1 F1200 X101 Y119 E71.45765
G1 X101 Y101 E72.29581
G1 X119 Y101 E73.13396
G1 X119 Y119 E73.97212
G0 F7500 X119.4 Y119.4
G1 F1200 X100.6 Y119.4 E74.84752
G1 X100.6 Y100.6 E75.72293
G1 X119.4 Y100.6 E76.59834
G1 X119.4 Y119.4 E77.47374
G0 F7500 X119.8 Y119.8
;TYPE:WALL-OUTER
G1 F1200 X100.2 Y119.8 E78.3864
G1 X100.2 Y100.2 E79.29906
G1 X119.8 Y100.2 E80.21172
G1 X119.8 Y119.8 E81.12438
G0 F7500 X119.53 Y119.53
G0 X118.49 Y118.21
G0 X118.21 Y118.21
;TYPE:SKIN
G1 F1200 X101.79 Y118.21 E81.88896
G1 X101.79 Y101.79 E82.65354
G1 X118.21 Y101.79 E83.41813
G1 X118.21 Y118.21 E84.18271
G0 F7500 X117.841 Y118.049
G1 F1200 X118.049 Y117.841 E84.19641
G0 F7500 X118.049 Y117.275
G1 F1200 X117.275 Y118.049 E84.24738
G0 F7500 X116.71 Y118.049
G1 F1200 X118.049 Y116.71 E84.33555
G0 F7500 X118.049 Y116.144
G1 F1200 X116.144 Y118.049 E84.461
G0 F7500 X115.578 Y118.049
G1 F1200 X118.049 Y115.578 E84.62372
G0 F7500 X118.049 Y115.013
G1 F1200 X115.013 Y118.049 E84.82365
G0 F7500 X114.447 Y118.049
G1 F1200 X118.049 Y114.447 E85.06084
G0 F7500 X118.049 Y113.881
G1 F1200 X113.881 Y118.049 E85.33531
G0 F7500 X113.315 Y118.049
G1 F1200 X118.049 Y113.315 E85.64706
G0 F7500 X118.049 Y112.75
G1 F1200 X112.75 Y118.049 E85.996
G0 F7500 X112.184 Y118.049
G1 F1200 X118.049 Y112.184 E86.38222
G0 F7500 X118.049 Y111.618
G1 F1200 X111.618 Y118.049 E86.80572
G0 F7500 X111.053 Y118.049
G1 F1200 X118.049 Y111.053 E87.26641
G0 F7500 X118.049 Y110.487
G1 F1200 X110.487 Y118.049 E87.76439
G0 F7500 X109.921 Y118.049
G1 F1200 X118.049 Y109.921 E88.29963
G0 F7500 X118.049 Y109.356
G1 F1200 X109.356 Y118.049 E88.87208
G0 F7500 X108.79 Y118.049
G1 F1200 X118.049 Y108.79 E89.4818
G0 F7500 X118.049 Y108.224
G1 F1200 X108.224 Y118.049 E90.12879
G0 F7500 X107.659 Y118.049
G1 F1200 X118.049 Y107.659 E90.81299
G0 F7500 X118.049 Y107.093
G1 F1200 X107.093 Y118.049 E91.53446
G0 F7500 X106.527 Y118.049
G1 F1200 X118.049 Y106.527 E92.29321
G0 F7500 X118.049 Y105.962
G1 F1200 X105.962 Y118.049 E93.08915
G0 F7500 X105.396 Y118.049
G1 F1200 X118.049 Y105.396 E93.92238
G0 F7500 X118.049 Y104.83
G1 F1200 X104.83 Y118.049 E94.79287
G0 F7500 X104.265 Y118.049
G1 F1200 X118.049 Y104.265 E95.70057
G0 F7500 X118.049 Y103.699
G1 F1200 X103.699 Y118.049 E96.64554
G0 F7500 X103.133 Y118.049
G1 F1200 X118.049 Y103.133 E97.62779
G0 F7500 X118.049 Y102.567
G1 F1200 X102.567 Y118.049 E98.6473
G0 F7500 X102.002 Y118.049
G1 F1200 X118.049 Y102.002 E99.70402
G0 F7500 X117.535 Y101.949
G1 F1200 X101.949 Y117.535 E100.73039
G0 F7500 X101.949 Y116.97
G1 F1200 X116.97 Y101.949 E101.71955
G0 F7500 X116.404 Y101.949
G1 F1200 X101.949 Y116.404 E102.67143
G0 F7500 X101.949 Y115.838
G1 F1200 X115.838 Y101.949 E103.58605
G0 F7500 X115.273 Y101.949
G1 F1200 X101.949 Y115.273 E104.46346
G0 F7500 X101.949 Y114.707
G1 F1200 X114.707 Y101.949 E105.30359
G0 F7500 X114.141 Y101.949
G1 F1200 X101.949 Y114.141 E106.10646
G0 F7500 X101.949 Y113.576
G1 F1200 X113.576 Y101.949 E106.87211
G0 F7500 X113.01 Y101.949
G1 F1200 X101.949 Y113.01 E107.6005
G0 F7500 X101.949 Y112.444
G1 F1200 X112.444 Y101.949 E108.29161
G0 F7500 X111.879 Y101.949
G1 F1200 X101.949 Y111.879 E108.94552
G0 F7500 X101.949 Y111.313
